; generated by PrusaSlicer 2.9.0 on 2026-02-12 at 22:08:49 UTC

; 

; external perimeters extrusion width = 0.45mm
; perimeters extrusion width = 0.45mm
; infill extrusion width = 0.45mm
; solid infill extrusion width = 0.45mm
; top infill extrusion width = 0.40mm
; first layer extrusion width = 0.45mm

M104 S200 ; set temperature
;TYPE:Custom
;Begin
M109 S200 ; set temperature and wait for it to be reached
G21 ; set units to millimeters
G90 ; use absolute coordinates
M82 ; use absolute distances for extrusion
G92 E0
; Filament gcode
M107
;LAYER_CHANGE
;Z:0.3
;HEIGHT:0.3
G92 E0
G1 X100.11 Y102.07 F1200
G1 Z.3
;TYPE:External perimeter
;WIDTH:0.45
G1 F0
G1 X100.103 Y102.057 E.00071
G1 X99.766 Y102.719 E.03644
G1 X99.395 Y103.182 E.06498
G1 X99.087 Y103.305 E.08093
G1 X98.817 Y103.263 E.09407
G1 X98.553 Y103.092 E.1092
;WIDTH:0.454204
G1 X98.424 Y102.907 E.12017
;WIDTH:0.468243
G1 X98.373 Y102.584 E.13664
G1 X98.485 Y102.231 E.15529
;WIDTH:0.458598
G1 X98.797 Y101.693 E.18587
;WIDTH:0.45
G1 X99.055 Y101.256 E.21028
G1 X99.345 Y100.836 E.23483
G1 X99.36 Y100.741 E.23946
G1 X98.643 Y99.512 E.30789
G1 X98.459 Y99.038 E.33235
G1 X98.463 Y98.738 E.34678
G1 X98.578 Y98.51 E.35906
G1 X98.759 Y98.364 E.37024
G1 X99.132 Y98.257 E.3889
G1 X99.376 Y98.315 E.40096
G1 X99.569 Y98.432 E.41182
G1 X99.918 Y98.871 E.43879
G1 X100.192 Y99.395 E.46723
G1 X100.49 Y98.774 E.50036
G1 X100.843 Y98.399 E.52513
G1 X101.152 Y98.261 E.54141
G1 X101.444 Y98.305 E.55561
G1 X101.688 Y98.492 E.5704
;WIDTH:0.489225
G1 X101.761 Y98.607 E.57762
;WIDTH:0.52845
G1 X101.834 Y98.722 E.5855
;WIDTH:0.567675
G1 X101.907 Y98.836 E.594
;WIDTH:0.57515
G1 X101.925 Y98.952 E.60148
G1 X101.876 Y99.055 E.60875
;WIDTH:0.533433
G1 X101.827 Y99.159 E.61548
;WIDTH:0.491716
G1 X101.778 Y99.262 E.62156
;WIDTH:0.45
G1 X101.109 Y100.394 E.6848
G1 X101.014 Y100.697 E.70007
G1 X101.121 Y101.029 E.71685
G1 X101.741 Y102.062 E.7748
G1 X101.887 Y102.401 E.79255
G1 X101.918 Y102.656 E.8049
G1 X101.877 Y102.898 E.81671
G1 X101.756 Y103.101 E.82808
G1 X101.517 Y103.262 E.84194
G1 X101.094 Y103.313 E.86243
G1 X100.886 Y103.237 E.87308
G1 X100.725 Y103.106 E.88306
G1 X100.463 Y102.707 E.90602
G1 X100.11 Y102.07 E.94105
G1 X100.11 Y102.07 F1200
G92 E0
G1 X95.603 Y102.155
G1 F0
G1 X95.628 Y102.077 E.00394
;WIDTH:0.412723
G1 X95.708 Y101.832 E.01514
;WIDTH:0.407135
G1 X95.824 Y101.652 E.02429
;WIDTH:0.438824
G1 X95.94 Y101.472 E.03429
;WIDTH:0.45
G1 X96.305 Y101.233 E.05527
G1 X96.778 Y101.144 E.07842
G1 X97.249 Y101.24 E.10154
G1 X97.608 Y101.476 E.1222
G1 X97.866 Y101.831 E.14331
;WIDTH:0.479761
G1 X98.006 Y102.346 E.17096
G1 X97.92 Y102.779 E.19383
;WIDTH:0.456741
G1 X97.658 Y103.207 E.21839
;WIDTH:0.45
G1 X97.239 Y103.495 E.24284
G1 X96.813 Y103.588 E.26381
G1 X96.331 Y103.505 E.28733
G1 X95.899 Y103.227 E.31204
G1 X95.647 Y102.848 E.33393
G1 X95.548 Y102.322 E.35967
G1 X95.603 Y102.155 E.36813
G1 X95.603 Y102.155 F1200
G92 E0
G1 X90.996 Y97.098
G1 F0
G1 X91.178 Y96.936 E.01172
G1 X91.453 Y96.838 E.02576
G1 X91.74 Y96.809 E.03963
G1 X93.327 Y96.845 E.11598
G1 X93.803 Y96.908 E.13907
G1 X94.281 Y97.036 E.16287
G1 X94.661 Y97.227 E.18333
G1 X95.016 Y97.521 E.2055
G1 X95.33 Y97.924 E.23007
G1 X95.519 Y98.254 E.24836
G1 X95.724 Y98.848 E.27858
G1 X95.824 Y99.461 E.30845
G1 X95.83 Y100.346 E.35102
G1 X95.742 Y100.957 E.38071
G1 X95.645 Y101.226 E.39446
;WIDTH:0.422836
G1 X95.548 Y101.496 E.40729
;WIDTH:0.441161
G1 X95.263 Y102.066 E.43724
;WIDTH:0.45
G1 X94.854 Y102.518 E.46656
G1 X94.366 Y102.836 E.49457
G1 X93.897 Y102.998 E.51844
G1 X93.384 Y103.08 E.54343
G1 X92.856 Y103.109 E.56886
G1 X92.145 Y103.102 E.60306
G1 X91.605 Y103.141 E.6291
G1 X91.226 Y103.062 E.64772
G1 X90.983 Y102.775 E.66581
G1 X90.888 Y102.256 E.69119
G1 X90.905 Y101.665 E.71963
G1 X90.909 Y98.051 E.89345
G1 X90.869 Y97.456 E.92213
G1 X90.964 Y97.127 E.9386
G1 X90.996 Y97.098 E.94068
G1 X90.996 Y97.098 F1200
G92 E0
G1 X86.615 Y98.439
;WIDTH:0.49085
G1 F0
G1 X86.389 Y98.363 E.01268
;WIDTH:0.45
G1 X86.151 Y98.138 E.02843
;WIDTH:0.483089
G1 X86.052 Y97.954 E.03934
;WIDTH:0.516178
G1 X85.953 Y97.769 E.05116
;WIDTH:0.559702
G1 X85.926 Y97.594 E.0621
G1 X85.971 Y97.512 E.06788
;WIDTH:0.526075
G1 X86.016 Y97.431 E.07322
;WIDTH:0.492448
G1 X86.062 Y97.349 E.07824
;WIDTH:0.458821
G1 X86.451 Y96.975 E.10479
;WIDTH:0.45
G1 X87.009 Y96.738 E.13395
G1 X87.621 Y96.649 E.16369
G1 X88.251 Y96.68 E.19403
G1 X88.777 Y96.816 E.22016
G1 X89.219 Y97.083 E.245
G1 X89.553 Y97.511 E.27111
G1 X89.677 Y97.924 E.29185
G1 X89.659 Y98.651 E.32683
G1 X89.532 Y99.067 E.34775
G1 X89.42 Y99.233 E.35738
G1 X89.2 Y99.41 E.37096
G1 X89.001 Y99.51 E.38167
G1 X89.282 Y99.628 E.39633
G1 X89.555 Y99.889 E.4145
G1 X89.76 Y100.352 E.43885
G1 X89.929 Y101.093 E.4754
G1 X89.907 Y101.556 E.49769
G1 X89.711 Y102.134 E.52704
G1 X89.387 Y102.623 E.55525
G1 X89.025 Y102.933 E.57817
G1 X88.636 Y103.134 E.59923
G1 X88.209 Y103.245 E.62045
G1 X87.467 Y103.274 E.65616
G1 X86.797 Y103.144 E.68899
G1 X86.33 Y102.893 E.71449
G1 X86.114 Y102.648 E.7302
G1 X86.002 Y102.37 E.74462
G1 X85.98 Y102.111 E.75712
G1 X86.057 Y101.815 E.77183
G1 X86.199 Y101.638 E.78274
G1 X86.437 Y101.506 E.79583
G1 X86.755 Y101.464 E.81126
G1 X87.179 Y101.573 E.83232
G1 X87.706 Y101.925 E.8628
G1 X87.943 Y101.923 E.8742
G1 X88.234 Y101.742 E.89068
G1 X88.381 Y101.465 E.90576
G1 X88.374 Y101.147 E.92106
G1 X88.241 Y100.852 E.93662
G1 X87.935 Y100.559 E.957
G1 X87.387 Y100.367 E.98493
G1 X86.893 Y100.226 E1.00964
G1 X86.721 Y100.033 E1.02207
G1 X86.665 Y99.813 E1.03299
G1 X86.741 Y99.37 E1.05461
;WIDTH:0.482796
G1 X86.854 Y99.202 E1.06518
;WIDTH:0.515593
G1 X86.967 Y99.035 E1.07653
;WIDTH:0.547602
G1 X87.083 Y98.964 E1.08473
;WIDTH:0.579612
G1 X87.198 Y98.893 E1.09342
G1 X87.365 Y98.879 E1.10419
;WIDTH:0.536408
G1 X87.531 Y98.865 E1.114
;WIDTH:0.493204
G1 X87.697 Y98.851 E1.12291
;WIDTH:0.45
G1 X87.87 Y98.767 E1.13216
G1 X88.012 Y98.65 E1.14101
G1 X88.103 Y98.42 E1.15291
G1 X88.051 Y98.186 E1.16444
G1 X87.898 Y98.043 E1.17451
G1 X87.586 Y98.029 E1.18953
G1 X87.397 Y98.104 E1.19931
;WIDTH:0.493204
G1 X87.267 Y98.209 E1.20825
;WIDTH:0.536408
G1 X87.137 Y98.314 E1.21809
;WIDTH:0.579612
G1 X87.007 Y98.418 E1.22879
G1 X86.846 Y98.44 E1.23923
;WIDTH:0.535231
G1 X86.684 Y98.462 E1.24883
;WIDTH:0.49085
G1 X86.615 Y98.439 E1.2527
G1 X86.615 Y98.439 F1200
G92 E0
G1 X83.492 Y98.243
;WIDTH:0.45
G1 F0
G1 X83.486 Y98.244 E.00029
G1 X83.451 Y98.477 E.01162
G1 X83.468 Y102.348 E.1978
G1 X83.325 Y102.831 E.22203
G1 X83.153 Y103.01 E.23397
G1 X82.955 Y103.103 E.24449
G1 X82.66 Y103.131 E.25874
G1 X82.344 Y103.044 E.2745
G1 X82.126 Y102.844 E.28873
G1 X82.037 Y102.549 E.30355
G1 X82.074 Y101.928 E.33347
G1 X82.058 Y99.151 E.46704
G1 X82.09 Y98.62 E.49263
G1 X82.07 Y98.423 E.50215
G1 X81.927 Y98.27 E.51222
G1 X81.735 Y98.21 E.52189
G1 X80.792 Y98.265 E.56732
G1 X80.564 Y98.209 E.57861
G1 X80.355 Y98.055 E.5911
;WIDTH:0.479886
G1 X80.246 Y97.918 E.60017
;WIDTH:0.51756
G1 X80.218 Y97.891 E.60237
;WIDTH:0.555234
G1 X80.19 Y97.863 E.60479
;WIDTH:0.592908
G1 X80.163 Y97.836 E.60731
G1 X80.112 Y97.505 E.62939
;WIDTH:0.581264
G1 X80.184 Y97.353 E.64023
;WIDTH:0.537509
G1 X80.255 Y97.202 E.65008
;WIDTH:0.493754
G1 X80.326 Y97.051 E.65902
;WIDTH:0.45
G1 X80.657 Y96.819 E.67846
G1 X80.89 Y96.789 E.68976
G1 X81.485 Y96.831 E.71845
G1 X84.778 Y96.82 E.87683
G1 X85.125 Y96.928 E.89431
G1 X85.316 Y97.169 E.9091
;WIDTH:0.486602
G1 X85.353 Y97.308 E.91667
;WIDTH:0.523204
G1 X85.39 Y97.447 E.9249
;WIDTH:0.559806
G1 X85.427 Y97.585 E.93373
G1 X85.37 Y97.703 E.94183
;WIDTH:0.523204
G1 X85.312 Y97.82 E.9493
;WIDTH:0.486602
G1 X85.255 Y97.938 E.9562
;WIDTH:0.45
G1 X85.011 Y98.134 E.97125
G1 X84.511 Y98.227 E.99571
G1 X83.712 Y98.218 E1.03414
G1 X83.492 Y98.243 E1.04479
G1 X83.492 Y98.243 F1200
G92 E0
G1 X79.533 Y101.761
G1 F0
G1 X79.587 Y102.032 E.01329
G1 X79.459 Y102.362 E.03031
G1 X79.308 Y102.6 E.04387
G1 X79.089 Y102.82 E.0588
G1 X78.65 Y103.088 E.08354
G1 X78.05 Y103.25 E.11343
G1 X77.229 Y103.26 E.15292
G1 X76.688 Y103.144 E.17953
G1 X76.041 Y102.82 E.21433
G1 X75.719 Y102.555 E.23439
G1 X75.36 Y102.116 E.26167
G1 X75.039 Y101.428 E.29818
;WIDTH:0.490482
G1 X74.94 Y101.069 E.31797
;WIDTH:0.530965
G1 X74.842 Y100.71 E.33963
G1 X74.807 Y100.004 E.38077
;WIDTH:0.510404
G1 X74.806 Y99.99 E.38155
;WIDTH:0.528811
G1 X74.835 Y99.293 E.42196
G1 X74.913 Y98.976 E.44087
;WIDTH:0.489405
G1 X74.992 Y98.66 E.45814
;WIDTH:0.45
G1 X75.181 Y98.138 E.48484
G1 X75.514 Y97.603 E.51515
G1 X75.949 Y97.176 E.54447
G1 X76.471 Y96.869 E.5736
G1 X77.017 Y96.701 E.60108
G1 X77.587 Y96.649 E.62861
G1 X78.307 Y96.727 E.66344
G1 X78.683 Y96.859 E.68261
G1 X79.174 Y97.179 E.7108
;WIDTH:0.493754
G1 X79.313 Y97.339 E.72215
;WIDTH:0.537509
G1 X79.453 Y97.499 E.7347
;WIDTH:0.581264
G1 X79.592 Y97.658 E.74832
;WIDTH:0.595049
G1 X79.64 Y97.916 E.76569
G1 X79.608 Y97.951 E.76883
;WIDTH:0.546699
G1 X79.576 Y97.986 E.77168
;WIDTH:0.498349
G1 X79.544 Y98.021 E.77425
;WIDTH:0.45
G1 X79.421 Y98.322 E.78989
G1 X79.136 Y98.568 E.808
G1 X78.894 Y98.619 E.8199
G1 X78.488 Y98.529 E.8399
G1 X77.815 Y98.149 E.87707
G1 X77.598 Y98.113 E.88765
G1 X77.162 Y98.16 E.90874
G1 X76.709 Y98.439 E.93433
G1 X76.496 Y98.767 E.95314
G1 X76.342 Y99.345 E.98191
G1 X76.309 Y99.947 E1.01091
G1 X76.336 Y100.536 E1.03927
G1 X76.44 Y101.043 E1.06416
G1 X76.633 Y101.389 E1.08322
G1 X76.929 Y101.665 E1.10269
G1 X77.196 Y101.782 E1.11671
G1 X77.576 Y101.837 E1.13518
G1 X77.95 Y101.783 E1.15335
G1 X78.156 Y101.678 E1.16447
G1 X78.383 Y101.447 E1.18005
G1 X78.614 Y101.341 E1.19227
G1 X79.043 Y101.352 E1.21291
G1 X79.332 Y101.498 E1.22848
G1 X79.527 Y101.731 E1.24309
G1 X79.533 Y101.761 E1.24456
G1 X79.533 Y101.761 F1200
G92 E0
G1 X104.57 Y100.668
G1 F0
G1 X104.739 Y100.109 E.02809
G1 X105.119 Y99.021 E.08352
G1 X105.332 Y98.638 E.1046
G1 X105.613 Y98.339 E.12433
G1 X105.953 Y98.264 E.14108
G1 X106.187 Y98.365 E.15334
;WIDTH:0.458741
G1 X106.476 Y98.696 E.17495
;WIDTH:0.501282
G1 X106.579 Y99.091 E.19719
G1 X106.443 Y99.434 E.2173
;WIDTH:0.475641
G1 X106.307 Y99.778 E.23627
;WIDTH:0.45
G1 X105.037 Y103.322 E.41734
G1 X104.46 Y104.738 E.49088
G1 X104.11 Y105.302 E.52281
G1 X103.788 Y105.567 E.54287
G1 X103.512 Y105.699 E.55758
G1 X103.03 Y105.832 E.58163
G1 X102.581 Y105.808 E.60326
G1 X102.249 Y105.566 E.62302
G1 X102.07 Y105.153 E.64467
G1 X102.098 Y104.812 E.66113
G1 X102.245 Y104.61 E.67315
G1 X102.481 Y104.492 E.68584
G1 X102.945 Y104.33 E.70948
G1 X103.148 Y104.212 E.72077
G1 X103.416 Y103.777 E.74534
G1 X103.759 Y102.965 E.78774
G1 X103.82 Y102.727 E.79956
G1 X103.706 Y102.339 E.81901
G1 X103.465 Y101.772 E.84864
G1 X102.532 Y99.263 E.97739
;WIDTH:0.490707
G1 X102.498 Y99.143 E.98402
;WIDTH:0.531414
G1 X102.465 Y99.022 E.99133
;WIDTH:0.572121
G1 X102.431 Y98.902 E.99923
G1 X102.474 Y98.762 E1.0085
;WIDTH:0.533326
G1 X102.517 Y98.621 E1.01712
;WIDTH:0.494531
G1 X102.809 Y98.318 E1.0397
;WIDTH:0.45
G1 X103.082 Y98.258 E1.05314
G1 X103.334 Y98.293 E1.06538
G1 X103.692 Y98.481 E1.08483
G1 X103.94 Y98.926 E1.10933
G1 X104.104 Y99.5 E1.13804
G1 X104.57 Y100.668 E1.19852
G1 X104.57 Y100.668 F1200
G92 E0
G1 X108.766 Y99.664
G1 F0
G1 X108.263 Y99.705 E.02427
G1 X107.676 Y99.671 E.05255
G1 X107.391 Y99.594 E.06675
G1 X107.164 Y99.428 E.08028
;WIDTH:0.495667
G1 X107.019 Y99.156 E.09686
G1 X107.011 Y98.831 E.11435
;WIDTH:0.486964
G1 X107.149 Y98.532 E.13171
;WIDTH:0.45
G1 X107.512 Y98.305 E.1523
G1 X108.057 Y98.255 E.17862
G1 X110.028 Y98.26 E.27342
G1 X110.359 Y98.351 E.28993
G1 X110.53 Y98.509 E.30113
G1 X110.67 Y98.854 E.31904
G1 X110.678 Y99.107 E.33121
G1 X110.612 Y99.399 E.34561
G1 X110.292 Y99.954 E.37642
G1 X109.06 Y101.687 E.47869
G1 X108.934 Y101.896 E.49043
G1 X109.726 Y101.859 E.52856
G1 X110.213 Y101.917 E.55215
G1 X110.507 Y102.05 E.56767
G1 X110.711 Y102.315 E.58375
G1 X110.758 Y102.667 E.60083
;WIDTH:0.448465
G1 X110.689 Y102.831 E.60935
;WIDTH:0.422865
G1 X110.621 Y102.994 E.61725
;WIDTH:0.421374
G1 X110.377 Y103.208 E.6317
;WIDTH:0.45
G1 X109.95 Y103.304 E.65275
G1 X107.544 Y103.312 E.76847
G1 X107.205 Y103.139 E.78678
G1 X107.126 Y103.044 E.79272
G1 X106.976 Y102.618 E.81444
G1 X106.991 Y102.35 E.82735
G1 X107.171 Y101.886 E.85129
G1 X107.256 Y101.767 E.85832
G1 X108.766 Y99.664 E.98284
G1 X108.766 Y99.664 F1200
G92 E0
G1 X75.079 Y94.242
;TYPE:Perimeter
G1 F0
G1 X75.178 Y94.147 E.0066
G1 X75.557 Y93.972 E.02668
G1 X75.819 Y93.93 E.03944
G1 X99.188 Y92.502 E1.1655
G1 X100.057 Y92.477 E1.20731
G1 X101.1 Y92.514 E1.25751
G1 X101.882 Y92.593 E1.29531
G1 X102.68 Y92.719 E1.33417
G1 X103.742 Y92.959 E1.38654
G1 X104.525 Y93.191 E1.42582
G1 X105.554 Y93.572 E1.47859
G1 X106.388 Y93.951 E1.52265
G1 X107.276 Y94.428 E1.57113
G1 X107.744 Y94.718 E1.59761
G1 X108.909 Y95.538 E1.66613
G1 X109.67 Y96.179 E1.71399
G1 X110.442 Y96.937 E1.76603
;WIDTH:0.468477
G1 X110.896 Y97.445 E1.80037
;WIDTH:0.505598
G1 X111.054 Y97.669 E1.81545
;WIDTH:0.542719
G1 X111.211 Y97.893 E1.83177
G1 X111.398 Y98.097 E1.84828
;WIDTH:0.498441
G1 X111.585 Y98.3 E1.86322
;WIDTH:0.454163
G1 X111.904 Y98.747 E1.88992
;WIDTH:0.45
G1 X112.192 Y99.194 E1.9155
G1 X112.517 Y99.756 E1.94672
G1 X112.559 Y100.055 E1.96124
G1 X112.489 Y100.316 E1.97424
G1 X112.215 Y100.784 E2.00032
G1 X111.8 Y101.412 E2.03652
G1 X111.105 Y102.32 E2.09152
G1 X110.959 Y101.971 E2.10972
G1 X110.66 Y101.683 E2.12969
G1 X110.209 Y101.523 E2.15271
G1 X109.684 Y101.475 E2.17807
G1 X110.626 Y100.147 E2.25638
G1 X110.947 Y99.592 E2.28722
G1 X111.057 Y99.178 E2.30782
G1 X111.055 Y98.833 E2.32441
;WIDTH:0.487465
G1 X110.969 Y98.5 E2.34256
;WIDTH:0.515092
G1 X110.904 Y98.347 E2.3519
;WIDTH:0.542719
G1 X110.84 Y98.194 E2.36179
G1 X110.609 Y98.013 E2.3793
;WIDTH:0.520154
G1 X110.319 Y97.944 E2.39625
;WIDTH:0.485077
G1 X110.029 Y97.874 E2.4119
;WIDTH:0.45
G1 X107.992 Y97.869 E2.50987
G1 X107.438 Y97.926 E2.53666
G1 X106.992 Y98.153 E2.56073
G1 X106.766 Y98.436 E2.57815
G1 X106.431 Y98.066 E2.60216
G1 X106.116 Y97.909 E2.61909
G1 X105.821 Y97.884 E2.63333
G1 X105.527 Y97.961 E2.64795
G1 X105.317 Y98.069 E2.65931
G1 X104.973 Y98.467 E2.68461
G1 X104.747 Y98.913 E2.70866
G1 X104.531 Y99.534 E2.74028
G1 X104.233 Y98.622 E2.78643
G1 X103.966 Y98.209 E2.81008
G1 X103.811 Y98.098 E2.81925
G1 X103.347 Y97.896 E2.84359
G1 X102.922 Y97.89 E2.86403
G1 X102.583 Y98 E2.88117
G1 X102.32 Y98.252 E2.89869
G1 X102.166 Y98.536 E2.91423
G1 X102.092 Y98.393 E2.92197
G1 X101.897 Y98.146 E2.93711
G1 X101.558 Y97.932 E2.95639
G1 X101.124 Y97.876 E2.97744
G1 X100.809 Y97.977 E2.99335
G1 X100.567 Y98.129 E3.00709
G1 X100.17 Y98.568 E3.03556
G1 X99.871 Y98.192 E3.05867
G1 X99.676 Y98.033 E3.07077
G1 X99.291 Y97.885 E3.09061
G1 X98.979 Y97.886 E3.10562
G1 X98.49 Y98.072 E3.13078
G1 X98.211 Y98.358 E3.15
G1 X98.064 Y98.76 E3.17059
G1 X98.099 Y99.197 E3.19168
G1 X98.308 Y99.703 E3.21801
G1 X98.926 Y100.771 E3.27736
G1 X98.671 Y101.136 E3.29878
G1 X98.269 Y101.841 E3.33781
G1 X98.136 Y101.526 E3.35426
G1 X97.892 Y101.214 E3.37331
G1 X97.452 Y100.912 E3.39898
G1 X97.247 Y100.834 E3.40953
G1 X96.7 Y100.757 E3.4361
G1 X96.141 Y100.892 E3.46376
G1 X96.218 Y100.314 E3.49181
G1 X96.214 Y99.802 E3.51644
G1 X96.183 Y99.259 E3.5426
G1 X96.089 Y98.722 E3.56882
G1 X95.883 Y98.128 E3.59906
G1 X95.662 Y97.729 E3.621
G1 X95.293 Y97.251 E3.65004
G1 X94.902 Y96.926 E3.67449
G1 X94.45 Y96.69 E3.69901
G1 X93.901 Y96.535 E3.72645
G1 X93.336 Y96.46 E3.75386
G1 X91.748 Y96.423 E3.83026
G1 X91.412 Y96.454 E3.84649
G1 X90.974 Y96.607 E3.8688
G1 X90.712 Y96.831 E3.88538
G1 X90.558 Y97.091 E3.89991
;WIDTH:0.471008
G1 X90.473 Y97.483 E3.92025
;WIDTH:0.489452
G1 X90.504 Y98.072 E3.95152
;WIDTH:0.51062
G1 X90.492 Y98.864 E3.99561
;WIDTH:0.544377
G1 X90.475 Y99.234 E4.01778
;WIDTH:0.578134
G1 X90.458 Y99.604 E4.04151
G1 X90.479 Y99.824 E4.05567
;WIDTH:0.534096
G1 X90.501 Y100.043 E4.06856
;WIDTH:0.490058
G1 X90.523 Y100.263 E4.0803
;WIDTH:0.44602
G1 X90.544 Y100.717 E4.10193
;WIDTH:0.40192
G1 X90.566 Y101.171 E4.12107
;WIDTH:0.385164
G1 X90.55 Y101.696 E4.14208
;WIDTH:0.417582
G1 X90.531 Y102.03 E4.15682
;WIDTH:0.45
G1 X90.511 Y102.363 E4.17287
G1 X90.635 Y102.941 E4.2013
G1 X90.963 Y103.346 E4.22637
