; generated by PrusaSlicer 2.9.0 on 2026-03-25 at 18:21:26 UTC

; 

; external perimeters extrusion width = 0.45mm
; perimeters extrusion width = 0.45mm
; infill extrusion width = 0.45mm
; solid infill extrusion width = 0.45mm
; top infill extrusion width = 0.40mm
; first layer extrusion width = 0.45mm

M190 S60 ; set bed temperature and wait for it to be reached
M104 S215 ; set temperature
;TYPE:Custom
;Begin
M109 S215 ; set temperature and wait for it to be reached
G21 ; set units to millimeters
G90 ; use absolute coordinates
M82 ; use absolute distances for extrusion
G92 E0
; Filament gcode
M107
;LAYER_CHANGE
;Z:0.3
;HEIGHT:0.3
G1 X69.559 Y87.959 F1200
G1 Z.3
;TYPE:Skirt/Brim
;WIDTH:0.45
G1 F0
G1 X70.61 Y87.154 E.06367
G1 X71.758 Y86.506 E.12707
G1 X73.17 Y85.969 E.19973
G1 X74.485 Y85.684 E.26445
G1 X98.691 Y84.171 E1.43095
G1 X100.336 Y84.131 E1.51009
G1 X103.281 Y84.361 E1.65217
G1 X104.769 Y84.626 E1.72486
G1 X106.273 Y85 E1.7994
G1 X108.883 Y85.918 E1.93247
G1 X111.545 Y87.256 E2.07577
G1 X114.02 Y88.937 E2.21967
G1 X116.209 Y90.888 E2.3607
G1 X117.207 Y91.968 E2.43143
G1 X118.232 Y93.241 E2.51004
G1 X119.834 Y95.713 E2.65172
G1 X120.538 Y97.422 E2.74062
G1 X120.877 Y99.175 E2.8265
G1 X120.85 Y101.08 E2.91813
G1 X120.468 Y102.802 E3.00297
G1 X120.123 Y103.698 E3.04915
G1 X119.675 Y104.573 E3.09643
G1 X118.207 Y106.792 E3.2244
G1 X116.543 Y108.765 E3.34854
G1 X114.712 Y110.5 E3.46986
G1 X113.166 Y111.698 E3.56393
G1 X111.564 Y112.733 E3.65566
G1 X109.82 Y113.66 E3.75065
G1 X108.052 Y114.414 E3.84309
G1 X106.283 Y114.998 E3.93269
G1 X104.211 Y115.486 E4.03507
G1 X102.242 Y115.765 E4.13072
G1 X100.392 Y115.868 E4.21984
G1 X98.665 Y115.828 E4.30293
G1 X74.458 Y114.312 E5.46948
G1 X72.738 Y113.894 E5.55461
G1 X71.227 Y113.221 E5.63417
G1 X69.663 Y112.132 E5.72583
G1 X68.666 Y111.135 E5.79364
G1 X67.875 Y110.071 E5.85741
G1 X67.26 Y108.947 E5.91903
G1 X66.779 Y107.681 E5.98417
G1 X66.478 Y106.331 E6.05069
G1 X66.369 Y104.893 E6.12005
G1 X66.376 Y94.75 E6.60789
G1 X66.61 Y92.964 E6.69452
G1 X67.228 Y91.12 E6.78806
G1 X68.219 Y89.427 E6.88241
G1 X69.559 Y87.959 E6.97801
G1 X69.559 Y87.959 F1200
G1 X69.816 Y88.246
G1 F0
G1 X70.825 Y87.474 E7.03911
G1 X71.925 Y86.854 E7.09984
G1 X73.153 Y86.376 E7.16322
G1 X74.542 Y86.065 E7.23168
G1 X98.715 Y84.556 E8.39658
G1 X100.334 Y84.517 E8.47447
G1 X103.225 Y84.742 E8.61394
G1 X104.688 Y85.003 E8.68542
G1 X106.17 Y85.372 E8.75888
G1 X108.731 Y86.273 E8.88946
G1 X111.348 Y87.587 E9.0303
G1 X113.781 Y89.24 E9.17177
G1 X115.937 Y91.161 E9.31066
G1 X116.915 Y92.22 E9.37999
G1 X117.923 Y93.473 E9.45734
G1 X119.494 Y95.895 E9.59619
G1 X120.169 Y97.534 E9.68144
G1 X120.493 Y99.209 E9.7635
G1 X120.467 Y101.033 E9.85124
G1 X120.101 Y102.684 E9.93258
G1 X119.342 Y104.379 E10.0219
G1 X117.898 Y106.562 E10.14779
G1 X116.262 Y108.501 E10.26981
G1 X114.39 Y110.267 E10.39359
G1 X112.943 Y111.383 E10.48148
G1 X111.371 Y112.399 E10.5715
G1 X109.655 Y113.312 E10.66499
G1 X107.835 Y114.083 E10.76006
G1 X105.999 Y114.676 E10.85286
G1 X104.138 Y115.107 E10.94474
G1 X102.203 Y115.381 E11.03874
G1 X100.388 Y115.483 E11.12617
G1 X98.689 Y115.443 E11.20791
G1 X74.517 Y113.931 E12.37277
G1 X72.865 Y113.53 E12.45453
G1 X71.412 Y112.882 E12.53105
G1 X69.917 Y111.842 E12.61864
G1 X68.887 Y110.799 E12.68914
G1 X68.198 Y109.861 E12.74512
G1 X67.525 Y108.598 E12.81395
G1 X67.114 Y107.453 E12.87246
G1 X66.859 Y106.271 E12.93062
G1 X66.755 Y104.893 E12.99709
G1 X66.762 Y94.762 E13.48436
G1 X66.987 Y93.046 E13.5676
G1 X67.58 Y91.278 E13.65729
G1 X68.531 Y89.653 E13.74785
G1 X69.816 Y88.246 E13.8395
G1 X69.816 Y88.246 F1200
G1 X70.084 Y88.546
G1 F0
G1 X70.452 Y88.217 E13.86324
G1 X71.443 Y87.544 E13.92086
G1 X72.529 Y87.009 E13.97909
G1 X73.79 Y86.602 E14.04282
G1 X74.969 Y86.402 E14.10034
G1 X98.738 Y84.94 E15.24571
G1 X100.331 Y84.903 E15.32235
G1 X103.169 Y85.124 E15.45926
G1 X106.067 Y85.743 E15.60179
G1 X108.579 Y86.627 E15.72987
G1 X111.15 Y87.918 E15.86824
G1 X113.542 Y89.543 E16.00732
G1 X115.664 Y91.434 E16.14403
G1 X117.556 Y93.626 E16.2833
G1 X118.366 Y94.775 E16.35091
G1 X119.146 Y96.061 E16.42325
G1 X119.803 Y97.656 E16.50622
G1 X120.115 Y99.31 E16.58717
G1 X120.079 Y101.035 E16.67015
G1 X119.926 Y101.879 E16.71141
G1 X119.635 Y102.853 E16.7603
G1 X118.762 Y104.599 E16.85419
G1 X117.28 Y106.734 E16.97919
G1 X115.701 Y108.529 E17.09417
G1 X113.939 Y110.14 E17.209
G1 X112.452 Y111.255 E17.29839
G1 X110.855 Y112.251 E17.38891
G1 X109.263 Y113.07 E17.47502
G1 X107.49 Y113.799 E17.56722
G1 X105.708 Y114.356 E17.65702
G1 X103.839 Y114.77 E17.74909
G1 X102.053 Y115.008 E17.83575
G1 X100.222 Y115.099 E17.92392
G1 X98.712 Y115.058 E17.99657
G1 X74.575 Y113.55 E19.15974
G1 X72.991 Y113.166 E19.23813
G1 X71.566 Y112.527 E19.31324
G1 X70.17 Y111.551 E19.39517
G1 X69.181 Y110.55 E19.46285
G1 X68.522 Y109.651 E19.51646
G1 X67.878 Y108.444 E19.58226
G1 X67.484 Y107.344 E19.63846
G1 X67.24 Y106.211 E19.6942
G1 X67.14 Y104.893 E19.75777
G1 X67.147 Y94.775 E20.24441
G1 X67.259 Y93.663 E20.29816
G1 X67.484 Y92.656 E20.34779
G1 X68.119 Y91.05 E20.43085
G1 X69.119 Y89.525 E20.51856
G1 X69.659 Y88.925 E20.55738
G1 X70.084 Y88.546 E20.58477
G1 X70.084 Y88.546 F1200
G1 X70.358 Y88.817
G1 F0
G1 X70.49 Y88.683 E20.59382
G1 X71.635 Y87.879 E20.66111
G1 X72.673 Y87.367 E20.71678
G1 X73.878 Y86.977 E20.7777
G1 X75.005 Y86.786 E20.83268
G1 X98.761 Y85.325 E21.97742
G1 X100.329 Y85.288 E22.05286
G1 X103.113 Y85.505 E22.18717
G1 X105.964 Y86.115 E22.3274
G1 X108.427 Y86.981 E22.45297
G1 X110.952 Y88.249 E22.58887
G1 X113.303 Y89.845 E22.72554
G1 X115.391 Y91.706 E22.86006
G1 X117.248 Y93.857 E22.99674
G1 X118.806 Y96.243 E23.1338
G1 X119.452 Y97.828 E23.21612
G1 X119.74 Y99.455 E23.29559
G1 X119.664 Y101.213 E23.38022
G1 X119.272 Y102.721 E23.45516
G1 X118.432 Y104.4 E23.54546
G1 X116.975 Y106.497 E23.66827
G1 X115.337 Y108.349 E23.78719
G1 X113.616 Y109.906 E23.89881
G1 X112.205 Y110.957 E23.98343
G1 X110.666 Y111.915 E24.07062
G1 X109.103 Y112.719 E24.15516
G1 X107.361 Y113.436 E24.24576
G1 X105.61 Y113.983 E24.33399
G1 X103.77 Y114.39 E24.42463
G1 X102.02 Y114.624 E24.50955
G1 X100.217 Y114.713 E24.59637
G1 X74.633 Y113.169 E25.82911
G1 X73.118 Y112.802 E25.90408
G1 X71.753 Y112.19 E25.97603
G1 X70.423 Y111.26 E26.05409
G1 X69.475 Y110.3 E26.11898
G1 X68.845 Y109.441 E26.17022
G1 X68.232 Y108.29 E26.23294
G1 X67.854 Y107.236 E26.2868
G1 X67.621 Y106.152 E26.34013
G1 X67.526 Y104.893 E26.40086
G1 X67.533 Y94.787 E26.88692
G1 X67.74 Y93.211 E26.96337
G1 X68.019 Y92.25 E27.0115
G1 X68.406 Y91.335 E27.05928
G1 X68.828 Y90.585 E27.10067
G1 X69.416 Y89.771 E27.14897
G1 X70.358 Y88.817 E27.21345
G1 X70.358 Y88.817 F1200
G1 X70.641 Y89.115
G1 F0
G1 X71.032 Y88.744 E27.23937
G1 X71.937 Y88.15 E27.29144
G1 X72.922 Y87.682 E27.34389
G1 X73.966 Y87.353 E27.39654
G1 X75.041 Y87.169 E27.449
G1 X98.785 Y85.71 E28.59316
G1 X100.326 Y85.674 E28.6673
G1 X103.057 Y85.887 E28.79905
G1 X105.86 Y86.486 E28.93691
G1 X108.275 Y87.336 E29.06005
G1 X110.755 Y88.58 E29.19349
G1 X113.064 Y90.148 E29.32773
G1 X115.119 Y91.979 E29.46011
G1 X116.999 Y94.168 E29.59889
G1 X118.483 Y96.457 E29.7301
G1 X119.082 Y97.936 E29.80685
G1 X119.263 Y98.725 E29.84578
G1 X119.365 Y99.651 E29.89059
G1 X119.275 Y101.204 E29.96541
G1 X118.813 Y102.839 E30.04713
G1 X117.871 Y104.57 E30.14191
G1 X116.476 Y106.504 E30.2566
G1 X114.882 Y108.257 E30.37056
G1 X113.11 Y109.817 E30.48411
G1 X111.601 Y110.897 E30.57336
G1 X110.159 Y111.756 E30.65409
G1 X108.573 Y112.535 E30.73908
G1 X107.004 Y113.153 E30.82019
G1 X105.301 Y113.666 E30.90573
G1 X103.588 Y114.03 E30.98996
G1 X101.799 Y114.256 E31.07669
G1 X99.982 Y114.328 E31.16415
G1 X74.691 Y112.787 E32.38282
G1 X73.244 Y112.437 E32.45442
G1 X71.94 Y111.852 E32.52316
G1 X70.677 Y110.97 E32.59725
G1 X69.55 Y109.777 E32.67618
G1 X68.924 Y108.821 E32.73114
G1 X68.423 Y107.734 E32.78871
G1 X68.127 Y106.753 E32.83799
G1 X67.954 Y105.713 E32.8887
G1 X67.94 Y94.438 E33.43099
G1 X68.259 Y92.753 E33.51347
G1 X68.881 Y91.257 E33.59139
G1 X69.793 Y89.921 E33.66919
G1 X70.641 Y89.115 E33.72546
G92 E0
G1 X70.641 Y89.115 F1200
G92 E0
G1 X104.57 Y100.668
;TYPE:External perimeter
;WIDTH:0.45
G1 F0
G1 X104.739 Y100.109 E.02809
G1 X105.119 Y99.021 E.08352
G1 X105.332 Y98.638 E.1046
G1 X105.613 Y98.339 E.12433
G1 X105.953 Y98.264 E.14108
G1 X106.187 Y98.365 E.15334
;WIDTH:0.458741
G1 X106.476 Y98.696 E.17495
;WIDTH:0.501282
G1 X106.579 Y99.091 E.19719
G1 X106.443 Y99.434 E.2173
;WIDTH:0.475641
G1 X106.307 Y99.778 E.23627
;WIDTH:0.45
G1 X105.037 Y103.322 E.41734
G1 X104.46 Y104.738 E.49088
G1 X104.11 Y105.302 E.52281
G1 X103.788 Y105.567 E.54287
G1 X103.512 Y105.699 E.55758
G1 X103.03 Y105.832 E.58163
G1 X102.581 Y105.808 E.60326
G1 X102.249 Y105.566 E.62302
G1 X102.07 Y105.153 E.64467
G1 X102.098 Y104.812 E.66113
G1 X102.245 Y104.61 E.67315
G1 X102.481 Y104.492 E.68584
G1 X102.945 Y104.33 E.70948
G1 X103.148 Y104.212 E.72077
G1 X103.416 Y103.777 E.74534
G1 X103.759 Y102.965 E.78774
G1 X103.82 Y102.727 E.79956
G1 X103.706 Y102.339 E.81901
G1 X103.465 Y101.772 E.84864
G1 X102.532 Y99.263 E.97739
;WIDTH:0.489507
G1 X102.501 Y99.215 E.98042
;WIDTH:0.534796
G1 X102.465 Y99.03 E.99148
;WIDTH:0.580086
G1 X102.428 Y98.846 E1.00355
G1 X102.48 Y98.743 E1.01097
;WIDTH:0.536724
G1 X102.532 Y98.639 E1.01782
;WIDTH:0.493362
G1 X102.584 Y98.536 E1.02399
;WIDTH:0.45
G1 X102.809 Y98.318 E1.03906
G1 X103.082 Y98.258 E1.0525
G1 X103.334 Y98.293 E1.06474
G1 X103.692 Y98.481 E1.08419
G1 X103.94 Y98.926 E1.10869
G1 X104.104 Y99.5 E1.1374
G1 X104.57 Y100.668 E1.19788
G1 X104.57 Y100.668 F1200
G92 E0
G1 X100.11 Y102.07
G1 F0
G1 X100.103 Y102.057 E.00071
G1 X99.766 Y102.719 E.03644
G1 X99.421 Y103.155 E.06318
G1 X99.149 Y103.299 E.07798
G1 X98.817 Y103.263 E.09404
G1 X98.553 Y103.092 E.10917
;WIDTH:0.454204
G1 X98.424 Y102.907 E.12014
;WIDTH:0.468243
G1 X98.373 Y102.584 E.13661
G1 X98.485 Y102.231 E.15526
;WIDTH:0.458598
G1 X98.797 Y101.693 E.18584
;WIDTH:0.45
G1 X99.055 Y101.256 E.21025
G1 X99.345 Y100.836 E.2348
G1 X99.36 Y100.741 E.23943
G1 X98.643 Y99.512 E.30786
G1 X98.459 Y99.038 E.33232
G1 X98.463 Y98.738 E.34675
G1 X98.578 Y98.51 E.35903
G1 X98.759 Y98.364 E.37021
G1 X99.132 Y98.257 E.38887
G1 X99.376 Y98.315 E.40093
G1 X99.569 Y98.432 E.41179
G1 X99.918 Y98.871 E.43876
G1 X100.192 Y99.395 E.4672
G1 X100.49 Y98.774 E.50033
G1 X100.843 Y98.399 E.5251
G1 X101.152 Y98.261 E.54138
G1 X101.444 Y98.305 E.55558
G1 X101.688 Y98.492 E.57037
;WIDTH:0.489225
G1 X101.761 Y98.607 E.57759
;WIDTH:0.52845
G1 X101.834 Y98.722 E.58547
;WIDTH:0.567675
G1 X101.907 Y98.836 E.59397
;WIDTH:0.57515
G1 X101.925 Y98.952 E.60145
G1 X101.876 Y99.055 E.60872
;WIDTH:0.533433
G1 X101.827 Y99.159 E.61545
;WIDTH:0.491716
G1 X101.778 Y99.262 E.62153
;WIDTH:0.45
G1 X101.109 Y100.394 E.68477
G1 X101.014 Y100.697 E.70004
G1 X101.121 Y101.029 E.71682
G1 X101.741 Y102.062 E.77477
G1 X101.887 Y102.401 E.79252
G1 X101.918 Y102.656 E.80487
G1 X101.877 Y102.898 E.81668
G1 X101.756 Y103.101 E.82805
G1 X101.517 Y103.262 E.84191
G1 X101.094 Y103.313 E.8624
G1 X100.886 Y103.237 E.87305
G1 X100.725 Y103.106 E.88303
G1 X100.463 Y102.707 E.90599
G1 X100.11 Y102.07 E.94102
G1 X100.11 Y102.07 F1200
G92 E0
G1 X95.603 Y102.155
G1 F0
G1 X95.628 Y102.077 E.00394
;WIDTH:0.412723
G1 X95.708 Y101.832 E.01514
;WIDTH:0.407135
G1 X95.824 Y101.652 E.02429
;WIDTH:0.438824
G1 X95.94 Y101.472 E.03429
;WIDTH:0.45
G1 X96.305 Y101.233 E.05527
G1 X96.778 Y101.144 E.07842
G1 X97.249 Y101.24 E.10154
G1 X97.608 Y101.476 E.1222
G1 X97.866 Y101.831 E.14331
;WIDTH:0.479761
G1 X98.006 Y102.346 E.17096
G1 X97.92 Y102.779 E.19383
;WIDTH:0.456741
G1 X97.658 Y103.207 E.21839
;WIDTH:0.45
G1 X97.239 Y103.495 E.24284
G1 X96.762 Y103.587 E.2662
G1 X96.331 Y103.505 E.2873
G1 X95.899 Y103.227 E.31201
G1 X95.647 Y102.848 E.3339
G1 X95.548 Y102.322 E.35964
G1 X95.603 Y102.155 E.3681
G1 X95.603 Y102.155 F1200
G92 E0
G1 X90.996 Y97.098
G1 F0
G1 X91.178 Y96.936 E.01172
G1 X91.428 Y96.842 E.02457
G1 X91.74 Y96.809 E.03966
G1 X93.327 Y96.845 E.11601
G1 X93.803 Y96.908 E.1391
G1 X94.281 Y97.036 E.1629
G1 X94.661 Y97.227 E.18336
G1 X95.016 Y97.521 E.20553
G1 X95.33 Y97.924 E.2301
G1 X95.519 Y98.254 E.24839
G1 X95.724 Y98.848 E.27861
G1 X95.824 Y99.461 E.30848
G1 X95.83 Y100.346 E.35105
G1 X95.742 Y100.957 E.38074
G1 X95.645 Y101.226 E.39449
;WIDTH:0.422836
G1 X95.548 Y101.496 E.40732
;WIDTH:0.441161
G1 X95.263 Y102.066 E.43727
;WIDTH:0.45
G1 X94.854 Y102.518 E.46659
G1 X94.366 Y102.836 E.4946
G1 X93.897 Y102.998 E.51847
G1 X93.384 Y103.08 E.54346
G1 X92.856 Y103.109 E.56889
G1 X92.145 Y103.102 E.60309
G1 X91.605 Y103.141 E.62913
G1 X91.226 Y103.062 E.64775
G1 X90.983 Y102.775 E.66584
G1 X90.888 Y102.256 E.69122
G1 X90.905 Y101.665 E.71966
G1 X90.909 Y98.051 E.89348
G1 X90.869 Y97.456 E.92216
G1 X90.964 Y97.127 E.93863
G1 X90.996 Y97.098 E.94071
G1 X90.996 Y97.098 F1200
G92 E0
G1 X86.615 Y98.439
;WIDTH:0.49085
G1 F0
G1 X86.389 Y98.363 E.01268
;WIDTH:0.45
G1 X86.151 Y98.138 E.02843
;WIDTH:0.483089
G1 X86.052 Y97.954 E.03934
;WIDTH:0.516178
G1 X85.953 Y97.769 E.05116
;WIDTH:0.559702
G1 X85.926 Y97.594 E.0621
G1 X86.004 Y97.475 E.07089
;WIDTH:0.523134
G1 X86.082 Y97.356 E.07903
;WIDTH:0.486567
G1 X86.16 Y97.238 E.08648
;WIDTH:0.45
G1 X86.473 Y96.964 E.10649
G1 X87.009 Y96.738 E.13447
G1 X87.621 Y96.649 E.16421
G1 X88.251 Y96.68 E.19455
G1 X88.777 Y96.816 E.22068
G1 X89.219 Y97.083 E.24552
G1 X89.553 Y97.511 E.27163
G1 X89.677 Y97.924 E.29237
G1 X89.659 Y98.651 E.32735
G1 X89.532 Y99.067 E.34827
G1 X89.42 Y99.233 E.3579
G1 X89.2 Y99.41 E.37148
G1 X89.001 Y99.51 E.38219
G1 X89.282 Y99.628 E.39685
G1 X89.555 Y99.889 E.41502
G1 X89.76 Y100.352 E.43937
G1 X89.929 Y101.093 E.47592
G1 X89.907 Y101.556 E.49821
G1 X89.711 Y102.134 E.52756
G1 X89.387 Y102.623 E.55577
G1 X89.025 Y102.933 E.57869
G1 X88.636 Y103.134 E.59975
G1 X88.209 Y103.245 E.62097
G1 X87.467 Y103.274 E.65668
G1 X86.797 Y103.144 E.68951
G1 X86.33 Y102.893 E.71501
G1 X86.114 Y102.648 E.73072
G1 X86.002 Y102.37 E.74514
G1 X85.98 Y102.111 E.75764
G1 X86.057 Y101.815 E.77235
G1 X86.199 Y101.638 E.78326
G1 X86.437 Y101.506 E.79635
G1 X86.755 Y101.464 E.81178
G1 X87.179 Y101.573 E.83284
G1 X87.706 Y101.925 E.86332
G1 X87.943 Y101.923 E.87472
G1 X88.234 Y101.742 E.8912
G1 X88.381 Y101.465 E.90628
G1 X88.374 Y101.147 E.92158
G1 X88.241 Y100.852 E.93714
G1 X87.935 Y100.559 E.95752
G1 X87.387 Y100.367 E.98545
G1 X86.893 Y100.226 E1.01016
G1 X86.721 Y100.033 E1.02259
G1 X86.665 Y99.813 E1.03351
G1 X86.741 Y99.37 E1.05513
;WIDTH:0.482796
G1 X86.854 Y99.202 E1.0657
;WIDTH:0.515593
G1 X86.967 Y99.035 E1.07705
;WIDTH:0.547602
G1 X87.083 Y98.964 E1.08525
;WIDTH:0.579612
G1 X87.198 Y98.893 E1.09394
G1 X87.365 Y98.879 E1.10471
;WIDTH:0.536408
G1 X87.531 Y98.865 E1.11452
;WIDTH:0.493204
G1 X87.697 Y98.851 E1.12343
;WIDTH:0.45
G1 X87.87 Y98.767 E1.13268
G1 X88.012 Y98.65 E1.14153
G1 X88.103 Y98.42 E1.15343
G1 X88.051 Y98.186 E1.16496
G1 X87.898 Y98.043 E1.17503
G1 X87.586 Y98.029 E1.19005
G1 X87.397 Y98.104 E1.19983
;WIDTH:0.493204
G1 X87.267 Y98.209 E1.20877
;WIDTH:0.536408
G1 X87.137 Y98.314 E1.21861
;WIDTH:0.579612
G1 X87.007 Y98.418 E1.22931
G1 X86.846 Y98.44 E1.23975
;WIDTH:0.535231
G1 X86.684 Y98.462 E1.24935
;WIDTH:0.49085
G1 X86.615 Y98.439 E1.25322
G1 X86.615 Y98.439 F1200
G92 E0
G1 X83.492 Y98.243
;WIDTH:0.45
G1 F0
G1 X83.486 Y98.244 E.00029
G1 X83.451 Y98.477 E.01162
G1 X83.468 Y102.348 E.1978
G1 X83.325 Y102.831 E.22203
G1 X83.153 Y103.01 E.23397
G1 X82.955 Y103.103 E.24449
G1 X82.66 Y103.131 E.25874
G1 X82.344 Y103.044 E.2745
G1 X82.126 Y102.844 E.28873
G1 X82.037 Y102.549 E.30355
G1 X82.074 Y101.928 E.33347
G1 X82.058 Y99.151 E.46704
G1 X82.09 Y98.62 E.49263
G1 X82.07 Y98.423 E.50215
G1 X81.927 Y98.27 E.51222
G1 X81.735 Y98.21 E.52189
G1 X80.792 Y98.265 E.56732
G1 X80.564 Y98.209 E.57861
G1 X80.411 Y98.11 E.58737
;WIDTH:0.497636
G1 X80.328 Y98.019 E.59403
;WIDTH:0.545272
G1 X80.245 Y97.928 E.60142
;WIDTH:0.592908
G1 X80.163 Y97.836 E.60954
G1 X80.112 Y97.505 E.63162
;WIDTH:0.581264
G1 X80.184 Y97.353 E.64246
;WIDTH:0.537509
G1 X80.255 Y97.202 E.65231
;WIDTH:0.493754
