; generated by PrusaSlicer 2.9.0 on 2026-03-25 at 18:34:14 UTC

; 

; external perimeters extrusion width = 0.68mm
; perimeters extrusion width = 0.68mm
; infill extrusion width = 0.68mm
; solid infill extrusion width = 0.68mm
; top infill extrusion width = 0.60mm

M190 S60 ; set bed temperature and wait for it to be reached
M104 S215 ; set temperature
;TYPE:Custom
;Begin
M109 S215 ; set temperature and wait for it to be reached
G21 ; set units to millimeters
G90 ; use absolute coordinates
M82 ; use absolute distances for extrusion
G92 E0
; Filament gcode
M107
;LAYER_CHANGE
;Z:0.5
;HEIGHT:0.5
G1 X69.006 Y87.259 F1200
G1 Z.5
;TYPE:Skirt/Brim
;WIDTH:0.675
G1 F0
G1 X70.217 Y86.348 E.17883
G1 X71.499 Y85.648 E.3512
G1 X72.801 Y85.157 E.51541
G1 X74.576 Y84.787 E.72938
G1 X98.627 Y83.281 E3.57322
G1 X100.327 Y83.24 E3.7739
G1 X101.838 Y83.306 E3.95238
G1 X103.409 Y83.478 E4.13888
G1 X104.96 Y83.754 E4.32479
G1 X106.514 Y84.14 E4.51375
G1 X109.243 Y85.098 E4.85507
G1 X110.704 Y85.774 E5.04505
G1 X112.014 Y86.487 E5.22106
G1 X114.529 Y88.186 E5.57923
G1 X115.734 Y89.184 E5.76387
G1 X116.876 Y90.266 E5.94952
G1 X117.912 Y91.384 E6.12939
G1 X118.93 Y92.64 E6.32018
G1 X120.589 Y95.16 E6.67623
G1 X121.058 Y96.112 E6.80147
G1 X121.42 Y97.1 E6.92564
G1 X121.668 Y98.079 E7.04482
G1 X121.818 Y99.109 E7.16765
G1 X121.799 Y101.078 E7.40002
G1 X121.622 Y102.137 E7.52673
G1 X121.334 Y103.167 E7.65294
G1 X120.954 Y104.122 E7.77423
G1 X120.481 Y105.028 E7.89484
G1 X119.093 Y107.141 E8.19318
G1 X117.469 Y109.112 E8.49456
G1 X115.612 Y110.923 E8.80067
G1 X114.005 Y112.208 E9.04349
G1 X112.328 Y113.326 E9.28134
G1 X110.412 Y114.371 E9.53889
G1 X108.507 Y115.198 E9.78397
G1 X106.556 Y115.849 E10.02669
G1 X104.523 Y116.334 E10.27334
G1 X102.415 Y116.643 E10.52477
G1 X100.385 Y116.76 E10.76473
G1 X98.583 Y116.716 E10.97745
G1 X75.173 Y115.268 E13.74537
G1 X74.133 Y115.151 E13.86888
G1 X72.179 Y114.633 E14.10744
G1 X70.74 Y113.966 E14.29461
G1 X69.65 Y113.26 E14.44787
G1 X69.006 Y112.741 E14.54548
G1 X67.956 Y111.674 E14.72214
G1 X67.118 Y110.536 E14.88892
G1 X66.442 Y109.286 E15.05662
G1 X65.934 Y107.922 E15.22839
G1 X65.616 Y106.482 E15.40242
G1 X65.502 Y104.927 E15.58642
G1 X65.51 Y94.677 E16.79603
G1 X65.768 Y92.708 E17.03038
G1 X66.411 Y90.782 E17.27
G1 X67.054 Y89.566 E17.43233
G1 X67.491 Y88.917 E17.52466
G1 X68.423 Y87.813 E17.69516
G1 X69.006 Y87.259 E17.79007
G1 X69.006 Y87.259 F1200
G1 X69.383 Y87.684
G1 F0
G1 X70.526 Y86.824 E17.95887
G1 X71.738 Y86.163 E18.12179
G1 X72.968 Y85.7 E18.27689
G1 X74.399 Y85.382 E18.44988
G1 X98.662 Y83.848 E21.3189
G1 X100.324 Y83.808 E21.51509
G1 X103.327 Y84.04 E21.87053
G1 X104.84 Y84.309 E22.05188
G1 X106.362 Y84.687 E22.23695
G1 X109.02 Y85.62 E22.56939
G1 X111.724 Y86.975 E22.92631
G1 X114.183 Y88.636 E23.2765
G1 X115.384 Y89.632 E23.46063
G1 X116.488 Y90.68 E23.64027
G1 X118.476 Y92.981 E23.99912
G1 X120.095 Y95.439 E24.34646
G1 X120.536 Y96.335 E24.46431
G1 X120.877 Y97.265 E24.58121
G1 X121.252 Y99.159 E24.80906
G1 X121.234 Y101.018 E25.02845
G1 X121.068 Y102.015 E25.14773
G1 X120.797 Y102.983 E25.26636
G1 X119.992 Y104.74 E25.49443
G1 X118.592 Y106.864 E25.79464
G1 X116.973 Y108.813 E26.09365
G1 X115.096 Y110.619 E26.40104
G1 X113.43 Y111.922 E26.65064
G1 X111.83 Y112.962 E26.87584
G1 X110.029 Y113.926 E27.11691
G1 X108.306 Y114.667 E27.33825
G1 X106.402 Y115.303 E27.57515
G1 X104.417 Y115.776 E27.81596
G1 X102.357 Y116.079 E28.06168
G1 X100.379 Y116.192 E28.29549
G1 X98.618 Y116.15 E28.50337
G1 X74.345 Y114.609 E31.37362
G1 X73.534 Y114.452 E31.4711
G1 X72.38 Y114.102 E31.61341
G1 X71.015 Y113.469 E31.79097
G1 X69.383 Y112.316 E32.02678
G1 X68.391 Y111.309 E32.19359
G1 X67.599 Y110.234 E32.35116
G1 X66.96 Y109.054 E32.50952
G1 X66.477 Y107.757 E32.67285
G1 X66.177 Y106.396 E32.83732
G1 X66.069 Y104.927 E33.01115
G1 X66.077 Y94.695 E34.21864
G1 X66.322 Y92.831 E34.4405
G1 X66.931 Y91.01 E34.6671
G1 X67.947 Y89.255 E34.90641
G1 X68.827 Y88.212 E35.06745
G1 X69.383 Y87.684 E35.15794
G1 X69.383 Y87.684 F1200
G1 X69.76 Y88.108
G1 F0
G1 X70.836 Y87.3 E35.31674
G1 X71.977 Y86.678 E35.4701
G1 X73.135 Y86.242 E35.61612
G1 X74.483 Y85.944 E35.77904
G1 X98.697 Y84.414 E38.64226
G1 X100.321 Y84.375 E38.83396
G1 X103.244 Y84.602 E39.17994
G1 X104.72 Y84.864 E39.35685
G1 X106.21 Y85.234 E39.53803
G1 X108.797 Y86.142 E39.86158
G1 X111.433 Y87.463 E40.20953
G1 X113.838 Y89.087 E40.55199
G1 X115.006 Y90.056 E40.73109
G1 X116.086 Y91.081 E40.9068
G1 X118.023 Y93.323 E41.25645
G1 X119.6 Y95.717 E41.59476
G1 X120.333 Y97.429 E41.81453
G1 X120.687 Y99.209 E42.0287
G1 X120.67 Y100.958 E42.23511
G1 X120.513 Y101.894 E42.34711
G1 X120.241 Y102.854 E42.46486
G1 X119.504 Y104.451 E42.67242
G1 X118.019 Y106.683 E42.98879
G1 X116.388 Y108.605 E43.28627
G1 X114.573 Y110.319 E43.58087
G1 X113.033 Y111.508 E43.81047
G1 X111.442 Y112.532 E44.03375
G1 X109.713 Y113.448 E44.26466
G1 X107.952 Y114.195 E44.4904
G1 X106.167 Y114.779 E44.71204
G1 X104.155 Y115.248 E44.95584
G1 X102.213 Y115.523 E45.1873
G1 X100.373 Y115.624 E45.40477
G1 X98.653 Y115.583 E45.60781
G1 X74.433 Y114.049 E48.47176
G1 X72.582 Y113.571 E48.69736
G1 X71.29 Y112.973 E48.86537
G1 X69.76 Y111.892 E49.08645
G1 X68.827 Y110.945 E49.24333
G1 X68.08 Y109.933 E49.39177
G1 X67.478 Y108.821 E49.54099
G1 X67.02 Y107.592 E49.69577
G1 X66.739 Y106.31 E49.85065
G1 X66.637 Y104.927 E50.0143
G1 X66.645 Y94.712 E51.21978
G1 X66.877 Y92.954 E51.42904
G1 X67.451 Y91.238 E51.64258
G1 X68.404 Y89.592 E51.86703
G1 X69.231 Y88.61 E52.01854
G1 X69.76 Y88.108 E52.1046
G1 X69.76 Y88.108 F1200
G1 X70.137 Y88.532
G1 F0
G1 X71.146 Y87.776 E52.25339
G1 X72.216 Y87.193 E52.39719
G1 X73.722 Y86.67 E52.58533
G1 X74.93 Y86.461 E52.73001
G1 X98.732 Y84.981 E55.54433
G1 X100.317 Y84.943 E55.73143
G1 X103.162 Y85.163 E56.06817
G1 X106.059 Y85.781 E56.41774
G1 X108.573 Y86.663 E56.73215
G1 X111.143 Y87.951 E57.07139
G1 X113.493 Y89.537 E57.40596
G1 X115.684 Y91.482 E57.7517
G1 X117.57 Y93.665 E58.09215
G1 X119.105 Y95.996 E58.42152
G1 X119.79 Y97.593 E58.62659
G1 X120.121 Y99.259 E58.82704
G1 X120.105 Y100.897 E59.02035
G1 X119.959 Y101.773 E59.12515
G1 X119.704 Y102.67 E59.2352
G1 X119.404 Y103.417 E59.3302
G1 X118.899 Y104.359 E59.45633
G1 X117.383 Y106.579 E59.77357
G1 X115.702 Y108.5 E60.07481
G1 X113.941 Y110.106 E60.35607
G1 X112.437 Y111.231 E60.57772
G1 X110.878 Y112.202 E60.79447
G1 X109.243 Y113.041 E61.01134
G1 X107.47 Y113.767 E61.23744
G1 X105.682 Y114.322 E61.45837
G1 X103.828 Y114.731 E61.68242
G1 X102.047 Y114.968 E61.89445
G1 X100.206 Y115.058 E62.11197
G1 X98.687 Y115.016 E62.2913
G1 X74.52 Y113.488 E65.14896
G1 X72.783 Y113.041 E65.36062
G1 X71.565 Y112.476 E65.51907
G1 X70.137 Y111.468 E65.72534
G1 X69.186 Y110.489 E65.88641
G1 X68.497 Y109.53 E66.02576
G1 X67.949 Y108.484 E66.16511
G1 X67.563 Y107.427 E66.2979
G1 X67.3 Y106.224 E66.44322
G1 X67.205 Y104.927 E66.59669
G1 X67.212 Y94.73 E67.80005
G1 X67.431 Y93.077 E67.99683
G1 X67.971 Y91.466 E68.19734
G1 X68.86 Y89.93 E68.40678
G1 X70.137 Y88.532 E68.63023
G1 X70.137 Y88.532 F1200
G1 X70.554 Y88.972
G1 F0
G1 X70.917 Y88.628 E68.68925
G1 X71.84 Y88.021 E68.81962
G1 X72.861 Y87.537 E68.95296
G1 X73.854 Y87.223 E69.07586
G1 X74.984 Y87.026 E69.21122
G1 X98.767 Y85.547 E72.0233
G1 X100.314 Y85.511 E72.20591
G1 X103.079 Y85.725 E72.53319
G1 X105.907 Y86.328 E72.87443
G1 X108.35 Y87.185 E73.17996
G1 X110.853 Y88.439 E73.51034
G1 X113.147 Y89.988 E73.83699
G1 X115.282 Y91.883 E74.17387
G1 X117.116 Y94.007 E74.50504
G1 X118.611 Y96.275 E74.82561
G1 X119.247 Y97.758 E75.01604
G1 X119.561 Y99.362 E75.20892
G1 X119.579 Y100.352 E75.32577
G1 X119.494 Y101.186 E75.4247
G1 X119.058 Y102.779 E75.61961
G1 X118.193 Y104.427 E75.83925
G1 X116.791 Y106.414 E76.12623
G1 X115.213 Y108.186 E76.40624
G1 X113.498 Y109.735 E76.67896
G1 X112.093 Y110.778 E76.88546
G1 X110.552 Y111.734 E77.09947
G1 X109.008 Y112.524 E77.30414
G1 X107.28 Y113.231 E77.52447
G1 X105.537 Y113.774 E77.73991
G1 X103.727 Y114.172 E77.95861
G1 X101.999 Y114.402 E78.16433
G1 X100.2 Y114.491 E78.37689
G1 X74.608 Y112.927 E81.40266
G1 X72.984 Y112.51 E81.60053
G1 X71.84 Y111.979 E81.74937
G1 X70.514 Y111.043 E81.94091
G1 X69.621 Y110.124 E82.09213
G1 X68.978 Y109.228 E82.22228
G1 X68.467 Y108.252 E82.35229
G1 X67.991 Y106.825 E82.52981
G1 X67.816 Y105.769 E82.65613
G1 X67.779 Y94.748 E83.95674
G1 X67.884 Y93.712 E84.07963
G1 X68.089 Y92.795 E84.19052
G1 X68.685 Y91.292 E84.38133
G1 X69.697 Y89.784 E84.59565
G1 X70.554 Y88.972 E84.73497
G92 E0
G92 E0
G1 X95.584 Y101.737 F1200
;TYPE:External perimeter
;WIDTH:0.693735
G1 F0
G1 X95.666 Y101.596 E.01988
G1 X95.666 Y101.596 F1200
G1 X95.463 Y102.13
;WIDTH:0.686746
G1 F0
G1 X95.582 Y101.743 E.06865
G1 X95.323 Y102.182 E.13005
;WIDTH:0.676315
G1 X94.934 Y102.597 E.19733
;WIDTH:0.675
G1 X94.424 Y102.933 E.2694
G1 X93.917 Y103.108 E.3327
G1 X93.4 Y103.192 E.39451
G1 X92.861 Y103.221 E.45821
G1 X92.146 Y103.215 E.54259
G1 X91.613 Y103.253 E.60565
G1 X91.176 Y103.164 E.65828
G1 X90.872 Y102.803 E.71398
G1 X90.779 Y102.311 E.77307
;WIDTH:0.712957
G1 X90.764 Y102.125 E.79656
;WIDTH:0.750913
G1 X90.748 Y101.938 E.82167
;WIDTH:0.78887
G1 X90.733 Y101.751 E.84825
G1 X90.749 Y101.233 E.92168
;WIDTH:0.792976
G1 X90.734 Y100.855 E.9756
;WIDTH:0.823141
G1 X90.72 Y100.477 E1.03189
G1 X90.741 Y100.308 E1.05723
;WIDTH:0.780891
G1 X90.762 Y100.139 E1.08108
;WIDTH:0.738641
G1 X90.784 Y99.97 E1.10345
;WIDTH:0.696391
G1 X90.795 Y99.459 E1.16604
;WIDTH:0.675
G1 X90.797 Y98.353 E1.29656
;WIDTH:0.718613
G1 X90.771 Y98.223 E1.31341
;WIDTH:0.762226
G1 X90.745 Y98.093 E1.33146
;WIDTH:0.805839
G1 X90.72 Y97.964 E1.35054
;WIDTH:0.849452
G1 X90.694 Y97.834 E1.37099
;WIDTH:0.897776
G1 X90.659 Y97.667 E1.39903
G1 X90.673 Y97.584 E1.41286
;WIDTH:0.859254
G1 X90.688 Y97.501 E1.42604
;WIDTH:0.820731
G1 X90.703 Y97.419 E1.4384
;WIDTH:0.782209
G1 X90.768 Y97.289 E1.45879
;WIDTH:0.746473
G1 X90.833 Y97.16 E1.47798
;WIDTH:0.710736
G1 X90.899 Y97.03 E1.49627
;WIDTH:0.675
G1 X91.134 Y96.833 E1.53246
G1 X91.438 Y96.726 E1.57049
G1 X91.741 Y96.697 E1.60641
G1 X93.331 Y96.733 E1.7941
G1 X93.83 Y96.799 E1.8535
G1 X94.329 Y96.934 E1.9145
G1 X94.729 Y97.138 E1.96749
G1 X95.085 Y97.428 E2.02168
G1 X95.381 Y97.789 E2.07677
G1 X95.624 Y98.215 E2.13465
G1 X95.831 Y98.814 E2.20944
G1 X95.935 Y99.444 E2.28479
G1 X95.944 Y100.189 E2.37271
G1 X95.883 Y100.77 E2.44165
;WIDTH:0.687207
G1 X95.73 Y101.402 E2.52004
;WIDTH:0.691852
G1 X95.702 Y101.548 E2.5381
G1 X96.117 Y101.212 E2.60298
;WIDTH:0.675
G1 X96.271 Y101.126 E2.6238
G1 X96.734 Y101.03 E2.6796
G1 X97.08 Y101.067 E2.72066
G1 X97.511 Y101.257 E2.77625
G1 X97.855 Y101.593 E2.833
;WIDTH:0.722624
G1 X98.103 Y102.108 E2.90611
;WIDTH:0.767035
G1 X98.13 Y102.25 E2.92593
;WIDTH:0.811446
G1 X98.158 Y102.392 E2.94712
;WIDTH:0.855857
G1 X98.186 Y102.534 E2.96964
G1 X98.247 Y102.412 E2.99086
;WIDTH:0.811446
G1 X98.308 Y102.29 E3.01083
;WIDTH:0.767035
G1 X98.37 Y102.167 E3.02972
;WIDTH:0.722624
G1 X98.706 Y101.626 E3.11118
;WIDTH:0.675
G1 X98.964 Y101.191 E3.17086
G1 X99.248 Y100.772 E3.23059
G1 X98.545 Y99.568 E3.39512
G1 X98.355 Y99.099 E3.45484
G1 X98.345 Y98.735 E3.49781
G1 X98.48 Y98.45 E3.53503
G1 X98.847 Y98.195 E3.58777
G1 X99.206 Y98.153 E3.63042
G1 X99.575 Y98.291 E3.67691
G1 X99.868 Y98.598 E3.72699
G1 X100.189 Y99.142 E3.80153
G1 X100.443 Y98.647 E3.86719
G1 X100.827 Y98.269 E3.93078
G1 X101.141 Y98.148 E3.97049
G1 X101.455 Y98.184 E4.00779
G1 X101.754 Y98.393 E4.05084
G1 X101.897 Y98.665 E4.0871
;WIDTH:0.62742
G1 X101.935 Y98.992 E4.12269
;WIDTH:0.635006
G1 X101.903 Y99.153 E4.1407
;WIDTH:0.663123
G1 X101.871 Y99.314 E4.15967
;WIDTH:0.675
G1 X101.313 Y100.269 E4.2902
G1 X101.169 Y100.578 E4.33043
G1 X101.13 Y100.702 E4.34577
G1 X101.216 Y100.969 E4.37887
G1 X101.838 Y102.005 E4.52147
G1 X101.998 Y102.382 E4.5698
G1 X102.03 Y102.667 E4.60364
G1 X101.979 Y102.945 E4.63699
G1 X101.831 Y103.185 E4.67026
G1 X101.583 Y103.361 E4.70615
G1 X101.335 Y103.429 E4.7365
G1 X101.011 Y103.405 E4.77484
G1 X100.822 Y103.33 E4.79884
G1 X100.636 Y103.174 E4.82749
G1 X100.366 Y102.763 E4.88552
G1 X100.107 Y102.297 E4.94844
G1 X99.866 Y102.772 E5.0113
G1 X99.505 Y103.23 E5.08012
G1 X99.196 Y103.403 E5.12191
G1 X98.836 Y103.391 E5.16442
G1 X98.489 Y103.19 E5.21174
;WIDTH:0.709036
G1 X98.387 Y103.067 E5.23173
;WIDTH:0.743073
G1 X98.285 Y102.943 E5.25295
;WIDTH:0.777107
G1 X98.243 Y102.84 E5.26844
;WIDTH:0.811142
G1 X98.201 Y102.736 E5.28485
;WIDTH:0.845176
G1 X98.159 Y102.632 E5.30205
G1 X98.092 Y102.747 E5.32246
;WIDTH:0.802632
G1 X98.025 Y102.862 E5.3417
;WIDTH:0.760088
G1 X97.958 Y102.977 E5.35976
;WIDTH:0.717544
G1 X97.891 Y103.092 E5.37664
;WIDTH:0.675
G1 X97.534 Y103.459 E5.43706
G1 X97.008 Y103.68 E5.50439
G1 X96.513 Y103.674 E5.56281
G1 X96.064 Y103.496 E5.61981
G1 X95.686 Y103.151 E5.6802
G1 X95.469 Y102.667 E5.7428
;WIDTH:0.678007
G1 X95.453 Y102.163 E5.80262
;WIDTH:0.686746
G1 X95.463 Y102.13 E5.80677
G1 X95.463 Y102.13 F1200
G92 E0
G1 X86.614 Y98.546
;WIDTH:0.661951
G1 F0
G1 X86.598 Y98.55 E.0019
;WIDTH:0.675
G1 X86.322 Y98.454 E.03639
G1 X86.057 Y98.2 E.07971
G1 X85.958 Y98.03 E.10293
;WIDTH:0.665127
G1 X85.932 Y97.902 E.11808
;WIDTH:0.637283
G1 X85.906 Y97.774 E.13247
;WIDTH:0.60944
G1 X85.92 Y97.512 E.15986
;WIDTH:0.639975
G1 X85.977 Y97.357 E.17815
;WIDTH:0.675
G1 X86.034 Y97.202 E.19764
G1 X86.426 Y96.862 E.25888
G1 X86.968 Y96.633 E.32832
G1 X87.656 Y96.535 E.41033
G1 X88.26 Y96.567 E.48171
G1 X88.671 Y96.659 E.53141
G1 X89.132 Y96.875 E.59149
G1 X89.533 Y97.261 E.65717
;WIDTH:0.719555
G1 X89.603 Y97.369 E.67355
;WIDTH:0.76411
G1 X89.674 Y97.478 E.69131
;WIDTH:0.808666
G1 X89.744 Y97.587 E.7102
;WIDTH:0.853221
G1 X89.815 Y97.696 E.73037
;WIDTH:0.897776
G1 X89.885 Y97.805 E.75166
G1 X89.864 Y97.912 E.76958
;WIDTH:0.853221
G1 X89.843 Y98.019 E.78649
;WIDTH:0.808666
G1 X89.822 Y98.126 E.80239
;WIDTH:0.76411
G1 X89.8 Y98.233 E.8173
;WIDTH:0.719555
G1 X89.779 Y98.34 E.83118
;WIDTH:0.675
G1 X89.762 Y98.724 E.87654
G1 X89.628 Y99.126 E.92655
G1 X89.498 Y99.314 E.95352
G1 X89.288 Y99.493 E.98608
G1 X89.647 Y99.822 E1.04355
;WIDTH:0.716113
G1 X89.76 Y100.046 E1.0753
;WIDTH:0.757225
G1 X89.873 Y100.27 E1.1092
;WIDTH:0.798338
G1 X89.985 Y100.494 E1.14518
G1 X90.091 Y101.175 E1.24418
;WIDTH:0.773111
G1 X90.04 Y101.71 E1.31856
G1 X89.831 Y102.109 E1.3809
;WIDTH:0.724055
G1 X89.623 Y102.509 E1.4387
;WIDTH:0.675
G1 X89.273 Y102.89 E1.49975
G1 X88.887 Y103.146 E1.55441
G1 X88.559 Y103.28 E1.59622
G1 X88.103 Y103.374 E1.65116
G1 X87.463 Y103.386 E1.7267
G1 X86.772 Y103.254 E1.80972
G1 X86.271 Y102.989 E1.8766
G1 X86.013 Y102.696 E1.92267
G1 X85.89 Y102.387 E1.96192
G1 X85.869 Y102.091 E1.99694
G1 X85.963 Y101.754 E2.03823
G1 X86.128 Y101.55 E2.06919
;WIDTH:0.690242
G1 X86.412 Y101.388 E2.10881
;WIDTH:0.738929
G1 X86.508 Y101.354 E2.12218
;WIDTH:0.787616
G1 X86.605 Y101.32 E2.13672
;WIDTH:0.836303
G1 X86.701 Y101.286 E2.15215
;WIDTH:0.88499
G1 X86.797 Y101.251 E2.16867
;WIDTH:0.898269
G1 X87.298 Y101.383 E2.25386
G1 X87.752 Y101.694 E2.34434
;WIDTH:0.886984
G1 X87.876 Y101.712 E2.36465
G1 X88.061 Y101.604 E2.39937
G1 X88.174 Y101.335 E2.44666
G1 X88.124 Y101.095 E2.48639
G1 X88.02 Y100.942 E2.51637
;WIDTH:0.905444
G1 X87.742 Y100.723 E2.57509
G1 X87.34 Y100.579 E2.64594
;WIDTH:0.885814
G1 X86.926 Y100.483 E2.71472
G1 X86.865 Y100.404 E2.73087
;WIDTH:0.843651
G1 X86.804 Y100.324 E2.74627
;WIDTH:0.801488
G1 X86.742 Y100.244 E2.76088
;WIDTH:0.759326
G1 X86.681 Y100.164 E2.77452
;WIDTH:0.717163
G1 X86.62 Y100.084 E2.78727
;WIDTH:0.675
G1 X86.553 Y99.806 E2.82102
G1 X86.622 Y99.353 E2.8751
G1 X86.825 Y99.062 E2.91697
;WIDTH:0.661951
G1 X87.009 Y98.972 E2.94059
;WIDTH:0.632334
G1 X87.194 Y98.882 E2.96304
;WIDTH:0.644898
G1 X87.433 Y98.809 E2.99097
;WIDTH:0.687079
G1 X87.672 Y98.735 E3.02112
G1 X87.914 Y98.578 E3.05589
;WIDTH:0.685317
G1 X87.976 Y98.329 E3.08672
G1 X87.899 Y98.204 E3.10436
G1 X87.771 Y98.142 E3.12145
G1 X87.517 Y98.168 E3.15213
G1 X87.264 Y98.299 E3.18636
;WIDTH:0.644017
G1 X87.012 Y98.429 E3.218
;WIDTH:0.632334
G1 X86.805 Y98.49 E3.24155
;WIDTH:0.661951
G1 X86.614 Y98.546 E3.2645
G1 X86.614 Y98.546 F1200
G92 E0
