; generated by PrusaSlicer 2.9.0 on 2026-03-26 at 14:41:00 UTC

; 

; external perimeters extrusion width = 0.70mm
; perimeters extrusion width = 0.70mm
; infill extrusion width = 0.70mm
; solid infill extrusion width = 0.70mm
; top infill extrusion width = 0.70mm
; first layer extrusion width = 0.70mm

M190 S60 ; set bed temperature and wait for it to be reached
M104 S215 ; set temperature
;TYPE:Custom
;Begin
M109 S215 ; set temperature and wait for it to be reached
G21 ; set units to millimeters
G90 ; use absolute coordinates
M82 ; use absolute distances for extrusion
G92 E0
; Filament gcode
M107
;LAYER_CHANGE
;Z:0.45
;HEIGHT:0.45
G1 X74.039 Y75.435 F1200
G1 Z.45
;TYPE:Skirt/Brim
;WIDTH:0.7
G1 F0
G1 X75.82 Y73.763 E.27579
G1 X78.043 Y72.751 E.55154
G1 X80 Y72.491 E.77442
G1 X120 Y72.491 E5.2902
G1 X122.41 Y72.889 E5.56596
G1 X124.565 Y74.039 E5.84172
G1 X126.237 Y75.82 E6.11751
G1 X127.249 Y78.043 E6.39326
G1 X127.509 Y80 E6.61614
G1 X127.509 Y120 E11.13192
G1 X127.111 Y122.41 E11.40768
G1 X125.961 Y124.565 E11.68344
G1 X124.18 Y126.237 E11.95923
G1 X121.957 Y127.249 E12.23498
G1 X120 Y127.509 E12.45786
G1 X80 Y127.509 E16.97364
G1 X77.59 Y127.111 E17.2494
G1 X75.435 Y125.961 E17.52516
G1 X73.763 Y124.18 E17.80095
G1 X72.751 Y121.957 E18.0767
G1 X72.491 Y120 E18.29958
G1 X72.491 Y80 E22.81536
G1 X72.889 Y77.59 E23.09112
G1 X74.039 Y75.435 E23.36688
G1 X74.039 Y75.435 F1200
G1 X74.586 Y75.742
G1 F0
G1 X74.638 Y75.65 E23.37881
G1 X76.4 Y74.108 E23.64315
G1 X78.576 Y73.243 E23.90751
G1 X80 Y73.095 E24.06914
G1 X120 Y73.095 E28.58492
G1 X122.308 Y73.492 E28.84931
G1 X124.35 Y74.638 E29.11366
G1 X125.892 Y76.4 E29.378
G1 X126.757 Y78.576 E29.64236
G1 X126.905 Y80 E29.80399
G1 X126.905 Y120 E34.31977
G1 X126.508 Y122.308 E34.58416
G1 X125.362 Y124.35 E34.84851
G1 X123.6 Y125.892 E35.11285
G1 X121.424 Y126.757 E35.37721
G1 X120 Y126.905 E35.53884
G1 X80 Y126.905 E40.05462
G1 X77.692 Y126.508 E40.31901
G1 X75.65 Y125.362 E40.58336
G1 X74.108 Y123.6 E40.8477
G1 X73.243 Y121.424 E41.11206
G1 X73.095 Y120 E41.27369
G1 X73.095 Y80 E45.78947
G1 X73.492 Y77.692 E46.05386
G1 X74.586 Y75.742 E46.30628
G1 X74.586 Y75.742 F1200
G1 X75.125 Y76.061
G1 F0
G1 X75.236 Y75.875 E46.33073
G1 X76.976 Y74.471 E46.58314
G1 X80 Y73.698 E46.93551
G1 X120 Y73.698 E51.45129
G1 X122.201 Y74.095 E51.70378
G1 X124.125 Y75.236 E51.95631
G1 X125.529 Y76.976 E52.20872
G1 X126.302 Y80 E52.56109
G1 X126.302 Y120 E57.07687
G1 X125.905 Y122.201 E57.32936
G1 X124.764 Y124.125 E57.58189
G1 X123.024 Y125.529 E57.8343
G1 X120 Y126.302 E58.18667
G1 X80 Y126.302 E62.70245
G1 X77.799 Y125.905 E62.95494
G1 X75.875 Y124.764 E63.20747
G1 X74.471 Y123.024 E63.45988
G1 X73.698 Y120 E63.81225
G1 X73.698 Y80 E68.32803
G1 X74.095 Y77.799 E68.58052
G1 X75.125 Y76.061 E68.8086
G92 E0
G1 X75.125 Y76.061 F1200
G92 E0
G1 X119.047 Y119.047
;TYPE:Perimeter
;WIDTH:0.7
G1 F0
G1 X80.953 Y119.047 E4.3006
G1 X80.953 Y80.953 E8.6012
G1 X119.047 Y80.953 E12.9018
G1 X119.047 Y100 E15.0521
G1 X119.047 Y119.047 E17.2024
G1 X119.047 Y119.047 F1200
G1 X119.65 Y119.65
;TYPE:External perimeter
G1 F0
G1 X80.35 Y119.65 E21.63915
G1 X80.35 Y80.35 E26.0759
G1 X119.65 Y80.35 E30.51265
G1 X119.65 Y100 E32.73103
G1 X119.65 Y119.65 E34.94941
G1 X119.65 Y119.65 F1200
G92 E0
G1 X118.866 Y82.363
;TYPE:Solid infill
;WIDTH:0.703902
G1 F0
G1 X117.909 Y81.406 E.15378
G1 X117.05 Y81.406 E.25138
G1 X118.594 Y82.95 E.49948
G1 X118.594 Y83.809 E.59708
G1 X116.191 Y81.406 E.98322
G1 X115.332 Y81.406 E1.08082
G1 X118.594 Y84.668 E1.60499
G1 X118.594 Y85.527 E1.70259
G1 X114.473 Y81.406 E2.36479
G1 X113.615 Y81.406 E2.46228
G1 X118.594 Y86.385 E3.26235
G1 X118.594 Y87.244 E3.35995
G1 X112.756 Y81.406 E4.29805
G1 X111.897 Y81.406 E4.39565
G1 X118.594 Y88.103 E5.47179
G1 X118.594 Y88.962 E5.56939
G1 X111.038 Y81.406 E6.78356
G1 X110.179 Y81.406 E6.88116
G1 X118.594 Y89.821 E8.23336
G1 X118.594 Y90.68 E8.33096
G1 X109.32 Y81.406 E9.82119
G1 X108.461 Y81.406 E9.91879
G1 X118.594 Y91.539 E11.54705
G1 X118.594 Y92.398 E11.64465
G1 X107.602 Y81.406 E13.41095
G1 X106.743 Y81.406 E13.50855
G1 X118.594 Y93.257 E15.41288
G1 X118.594 Y94.116 E15.51048
G1 X105.884 Y81.406 E17.55284
G1 X105.026 Y81.406 E17.65033
G1 X118.594 Y94.974 E19.83056
G1 X118.594 Y95.833 E19.92816
G1 X104.167 Y81.406 E22.24642
G1 X103.308 Y81.406 E22.34402
G1 X118.594 Y96.692 E24.80032
G1 X118.594 Y97.551 E24.89792
G1 X102.449 Y81.406 E27.49225
G1 X101.59 Y81.406 E27.58985
G1 X118.594 Y98.41 E30.32221
G1 X118.594 Y99.269 E30.41981
G1 X100.731 Y81.406 E33.2902
G1 X99.872 Y81.406 E33.3878
G1 X118.594 Y100.128 E36.39622
G1 X118.594 Y100.987 E36.49382
G1 X99.013 Y81.406 E39.64028
G1 X98.154 Y81.406 E39.73788
G1 X118.594 Y101.846 E43.02237
G1 X118.594 Y102.704 E43.11986
G1 X97.296 Y81.406 E46.54222
G1 X96.437 Y81.406 E46.63982
G1 X118.594 Y103.563 E50.20021
G1 X118.594 Y104.422 E50.29781
G1 X95.578 Y81.406 E53.99623
G1 X94.719 Y81.406 E54.09383
G1 X118.594 Y105.281 E57.93029
G1 X118.594 Y106.14 E58.02789
G1 X93.86 Y81.406 E62.00238
G1 X93.001 Y81.406 E62.09998
G1 X118.594 Y106.999 E66.2125
G1 X118.594 Y107.858 E66.3101
G1 X92.142 Y81.406 E70.56065
G1 X91.283 Y81.406 E70.65825
G1 X118.594 Y108.717 E75.04684
G1 X118.594 Y109.576 E75.14444
G1 X90.424 Y81.406 E79.67106
G1 X89.565 Y81.406 E79.76866
G1 X118.594 Y110.435 E84.43331
G1 X118.594 Y111.293 E84.5308
G1 X88.707 Y81.406 E89.33332
G1 X87.848 Y81.406 E89.43092
G1 X118.594 Y112.152 E94.37147
G1 X118.594 Y113.011 E94.46907
G1 X86.989 Y81.406 E99.54766
G1 X86.13 Y81.406 E99.64526
G1 X118.594 Y113.87 E104.86188
G1 X118.594 Y114.729 E104.95948
G1 X85.271 Y81.406 E110.31413
G1 X84.412 Y81.406 E110.41173
G1 X118.594 Y115.588 E115.90441
G1 X118.594 Y116.447 E116.00201
G1 X83.553 Y81.406 E121.63272
G1 X82.694 Y81.406 E121.73032
G1 X118.594 Y117.306 E127.49907
G1 X118.594 Y118.165 E127.59667
G1 X81.835 Y81.406 E133.50345
G1 X81.406 Y81.406 E133.55219
G1 X81.406 Y81.836 E133.60105
G1 X118.165 Y118.594 E139.50775
G1 X117.306 Y118.594 E139.60535
G1 X81.406 Y82.694 E145.3741
G1 X81.406 Y83.553 E145.4717
G1 X116.447 Y118.594 E151.10241
G1 X115.588 Y118.594 E151.20001
G1 X81.406 Y84.412 E156.69269
G1 X81.406 Y85.271 E156.79029
G1 X114.729 Y118.594 E162.14494
G1 X113.87 Y118.594 E162.24254
G1 X81.406 Y86.13 E167.45916
G1 X81.406 Y86.989 E167.55676
G1 X113.011 Y118.594 E172.63535
G1 X112.152 Y118.594 E172.73295
G1 X81.406 Y87.848 E177.6735
G1 X81.406 Y88.707 E177.7711
G1 X111.293 Y118.594 E182.57362
G1 X110.434 Y118.594 E182.67122
G1 X81.406 Y89.566 E187.33571
G1 X81.406 Y90.424 E187.4332
G1 X109.576 Y118.594 E191.95982
G1 X108.717 Y118.594 E192.05742
G1 X81.406 Y91.283 E196.44601
G1 X81.406 Y92.142 E196.54361
G1 X107.858 Y118.594 E200.79416
G1 X106.999 Y118.594 E200.89176
G1 X81.406 Y93.001 E205.00428
G1 X81.406 Y93.86 E205.10188
G1 X106.14 Y118.594 E209.07637
G1 X105.281 Y118.594 E209.17397
G1 X81.406 Y94.719 E213.01043
G1 X81.406 Y95.578 E213.10803
G1 X104.422 Y118.594 E216.80645
G1 X103.563 Y118.594 E216.90405
G1 X81.406 Y96.437 E220.46444
G1 X81.406 Y97.296 E220.56204
G1 X102.704 Y118.594 E223.9844
G1 X101.845 Y118.594 E224.082
G1 X81.406 Y98.155 E227.36633
G1 X81.406 Y99.013 E227.46382
G1 X100.987 Y118.594 E230.61028
G1 X100.128 Y118.594 E230.70788
G1 X81.406 Y99.872 E233.7163
G1 X81.406 Y100.731 E233.8139
G1 X99.269 Y118.594 E236.68429
G1 X98.41 Y118.594 E236.78189
G1 X81.406 Y101.59 E239.51425
G1 X81.406 Y102.449 E239.61185
G1 X97.551 Y118.594 E242.20618
G1 X96.692 Y118.594 E242.30378
G1 X81.406 Y103.308 E244.76008
G1 X81.406 Y104.167 E244.85768
G1 X95.833 Y118.594 E247.17594
G1 X94.974 Y118.594 E247.27354
G1 X81.406 Y105.026 E249.45377
G1 X81.406 Y105.885 E249.55137
G1 X94.115 Y118.594 E251.59357
G1 X93.257 Y118.594 E251.69106
G1 X81.406 Y106.743 E253.59539
G1 X81.406 Y107.602 E253.69299
G1 X92.398 Y118.594 E255.45929
G1 X91.539 Y118.594 E255.55689
G1 X81.406 Y108.461 E257.18515
G1 X81.406 Y109.32 E257.28275
G1 X90.68 Y118.594 E258.77298
G1 X89.821 Y118.594 E258.87058
G1 X81.406 Y110.179 E260.22278
G1 X81.406 Y111.038 E260.32038
G1 X88.962 Y118.594 E261.53455
G1 X88.103 Y118.594 E261.63215
G1 X81.406 Y111.897 E262.70829
G1 X81.406 Y112.756 E262.80589
G1 X87.244 Y118.594 E263.74399
G1 X86.385 Y118.594 E263.84159
G1 X81.406 Y113.615 E264.64166
G1 X81.406 Y114.474 E264.73926
G1 X85.526 Y118.594 E265.4013
G1 X84.668 Y118.594 E265.49879
G1 X81.406 Y115.332 E266.02296
G1 X81.406 Y116.191 E266.12056
G1 X83.809 Y118.594 E266.5067
G1 X82.95 Y118.594 E266.6043
G1 X81.406 Y117.05 E266.8524
G1 X81.406 Y117.909 E266.95
G1 X82.362 Y118.866 E267.1037
M106 S127.5
;LAYER_CHANGE
;Z:0.9
;HEIGHT:0.45
G1 Z.9 F1200
M104 S210 ; set temperature
G92 E0
G1 X119.047 Y119.047
;TYPE:Perimeter
;WIDTH:0.7
G1 X80.953 Y119.047 E4.3006
G1 X80.953 Y80.953 E8.6012
G1 X119.047 Y80.953 E12.9018
G1 X119.047 Y100 E15.0521
G1 X119.047 Y119.047 E17.2024
G1 X119.65 Y119.65
;TYPE:External perimeter
G1 F4800
G1 X80.35 Y119.65 E21.63915
G1 X80.35 Y80.35 E26.0759
G1 X119.65 Y80.35 E30.51265
G1 X119.65 Y100 E32.73103
G1 X119.65 Y119.65 E34.94941
G1 X119.65 Y119.65 F1200
G92 E0
G1 X81.57 Y81.455
;TYPE:Solid infill
;WIDTH:0.846409
G1 X81.503 Y81.389 E.01319
G1 X81.413 Y81.413 E.02626
G1 X81.389 Y81.503 E.03933
G1 X81.455 Y81.57 E.05252
G1 X81.545 Y81.545 E.06562
;WIDTH:0.7
G1 X81.406 Y82.509 E.17558
G1 X82.509 Y81.406 E.35168
G1 X82.648 Y81.3 E.37141
;WIDTH:0.653285
G1 X82.786 Y81.194 E.38953
;WIDTH:0.606571
G1 X82.724 Y81.21 E.39564
G1 X82.679 Y81.165 E.40171
G1 X82.696 Y81.103 E.40784
G1 X82.757 Y81.087 E.41386
G1 X82.803 Y81.132 E.42
;WIDTH:0.7
G1 X83.363 Y81.406 E.49038
G1 X81.406 Y83.363 E.80283
G1 X81.406 Y84.216 E.89913
G1 X84.216 Y81.406 E1.34777
G1 X85.069 Y81.406 E1.44407
G1 X81.406 Y85.069 E2.02889
G1 X81.406 Y85.923 E2.1253
G1 X85.923 Y81.406 E2.84647
G1 X86.776 Y81.406 E2.94277
G1 X81.406 Y86.776 E3.80013
G1 X81.406 Y87.63 E3.89654
G1 X87.63 Y81.406 E4.89024
G1 X88.483 Y81.406 E4.98654
G1 X81.406 Y88.483 E6.11643
G1 X81.406 Y89.336 E6.21273
G1 X89.336 Y81.406 E7.47881
G1 X90.19 Y81.406 E7.57522
G1 X81.406 Y90.19 E8.97765
G1 X81.406 Y91.043 E9.07395
G1 X91.043 Y81.406 E10.61256
G1 X91.896 Y81.406 E10.70886
G1 X81.406 Y91.896 E12.38366
G1 X81.406 Y92.75 E12.48007
G1 X92.75 Y81.406 E14.29122
G1 X93.603 Y81.406 E14.38752
G1 X81.406 Y93.603 E16.33486
G1 X81.406 Y94.457 E16.43127
G1 X94.457 Y81.406 E18.51495
G1 X95.31 Y81.406 E18.61125
G1 X81.406 Y95.31 E20.83112
G1 X81.406 Y96.163 E20.92742
G1 X96.163 Y81.406 E23.28348
G1 X97.017 Y81.406 E23.37989
G1 X81.406 Y97.017 E25.87229
G1 X81.406 Y97.87 E25.96859
G1 X97.87 Y81.406 E28.59718
G1 X98.723 Y81.406 E28.69348
G1 X81.406 Y98.723 E31.45826
G1 X81.406 Y99.577 E31.55467
G1 X99.577 Y81.406 E34.4558
G1 X100.43 Y81.406 E34.5521
G1 X81.406 Y100.43 E37.58941
G1 X81.406 Y101.284 E37.68582
G1 X101.284 Y81.406 E40.85948
G1 X102.137 Y81.406 E40.95578
G1 X81.406 Y102.137 E44.26563
G1 X81.406 Y102.99 E44.36193
G1 X102.99 Y81.406 E47.80796
G1 X103.844 Y81.406 E47.90437
G1 X81.406 Y103.844 E51.48675
G1 X81.406 Y104.697 E51.58305
G1 X104.697 Y81.406 E55.30162
G1 X105.551 Y81.406 E55.39803
G1 X81.406 Y105.551 E59.25295
G1 X81.406 Y106.404 E59.34925
G1 X106.404 Y81.406 E63.34035
G1 X107.257 Y81.406 E63.43665
G1 X81.406 Y107.257 E67.56394
G1 X81.406 Y108.111 E67.66035
G1 X108.111 Y81.406 E71.92399
G1 X108.964 Y81.406 E72.02029
G1 X81.406 Y108.964 E76.42011
G1 X81.406 Y109.817 E76.51641
G1 X109.817 Y81.406 E81.05242
G1 X110.671 Y81.406 E81.14883
G1 X81.406 Y110.671 E85.82119
G1 X81.406 Y111.524 E85.91749
G1 X111.524 Y81.406 E90.72604
G1 X112.378 Y81.406 E90.82245
G1 X81.406 Y112.378 E95.76734
G1 X81.406 Y113.231 E95.86364
G1 X113.231 Y81.406 E100.94472
G1 X114.084 Y81.406 E101.04102
G1 X81.406 Y114.084 E106.25829
G1 X81.406 Y114.938 E106.3547
G1 X114.938 Y81.406 E111.70831
G1 X115.791 Y81.406 E111.80461
G1 X81.406 Y115.791 E117.29441
G1 X81.406 Y116.644 E117.39071
G1 X116.644 Y81.406 E123.0167
G1 X117.498 Y81.406 E123.11311
G1 X81.406 Y117.498 E128.87545
G1 X81.297 Y118.793
;WIDTH:0.606571
G1 X81.236 Y118.809 E128.88147
G1 X81.191 Y118.764 E128.88754
G1 X81.207 Y118.703 E128.89356
G1 X81.269 Y118.686 E128.89969
G1 X81.314 Y118.731 E128.90576
;WIDTH:0.653285
G1 X81.36 Y118.541 E128.92612
;WIDTH:0.7
G1 X81.406 Y118.351 E128.94819
G1 X118.351 Y81.406 E134.84671
G1 X118.594 Y82.017 E134.92094
G1 X82.017 Y118.594 E140.76071
G1 X82.87 Y118.594 E140.85701
G1 X118.594 Y82.87 E146.56059
G1 X118.594 Y83.723 E146.65689
G1 X83.723 Y118.594 E152.22429
G1 X84.577 Y118.594 E152.3207
G1 X118.594 Y84.577 E157.75175
G1 X118.594 Y85.43 E157.84805
G1 X85.43 Y118.594 E163.14291
G1 X86.283 Y118.594 E163.23921
G1 X118.594 Y86.283 E168.39788
G1 X118.594 Y87.137 E168.49429
G1 X87.137 Y118.594 E173.51662
G1 X87.99 Y118.594 E173.61292
G1 X118.594 Y87.99 E178.49906
G1 X118.594 Y88.844 E178.59547
G1 X88.844 Y118.594 E183.34526
G1 X89.697 Y118.594 E183.44156
G1 X118.594 Y89.697 E188.05517
G1 X118.594 Y90.55 E188.15147
G1 X90.55 Y118.594 E192.62889
G1 X91.404 Y118.594 E192.7253
G1 X118.594 Y91.404 E197.06637
G1 X118.594 Y92.257 E197.16267
G1 X92.257 Y118.594 E201.36755
G1 X93.11 Y118.594 E201.46385
G1 X118.594 Y93.11 E205.53255
G1 X118.594 Y93.964 E205.62896
G1 X93.964 Y118.594 E209.56131
G1 X94.817 Y118.594 E209.65761
G1 X118.594 Y94.817 E213.45377
G1 X118.594 Y95.671 E213.55018
G1 X95.671 Y118.594 E217.20999
G1 X96.524 Y118.594 E217.30629
G1 X118.594 Y96.524 E220.82992
G1 X118.594 Y97.377 E220.92622
G1 X97.377 Y118.594 E224.31366
G1 X98.231 Y118.594 E224.41007
G1 X118.594 Y98.231 E227.66116
G1 X118.594 Y99.084 E227.75746
G1 X99.084 Y118.594 E230.87237
G1 X99.937 Y118.594 E230.96867
G1 X118.594 Y99.937 E233.94739
G1 X118.594 Y100.791 E234.0438
G1 X100.791 Y118.594 E236.88617
G1 X101.644 Y118.594 E236.98247
G1 X118.594 Y101.644 E239.68865
G1 X118.594 Y102.498 E239.78506
G1 X102.498 Y118.594 E242.3549
G1 X103.351 Y118.594 E242.4512
G1 X118.594 Y103.351 E244.88485
G1 X118.594 Y104.204 E244.98115
G1 X104.204 Y118.594 E247.27861
G1 X105.058 Y118.594 E247.37502
G1 X118.594 Y105.058 E249.53614
G1 X118.594 Y105.911 E249.63244
G1 X105.911 Y118.594 E251.65737
G1 X106.764 Y118.594 E251.75367
G1 X118.594 Y106.764 E253.64241
G1 X118.594 Y107.618 E253.73882
G1 X107.618 Y118.594 E255.49121
G1 X108.471 Y118.594 E255.58751
G1 X118.594 Y108.471 E257.20372
G1 X118.594 Y109.325 E257.30013
G1 X109.325 Y118.594 E258.77999
G1 X110.178 Y118.594 E258.87629
G1 X118.594 Y110.178 E260.21996
G1 X118.594 Y111.031 E260.31626
G1 X111.031 Y118.594 E261.52375
G1 X111.885 Y118.594 E261.62016
G1 X118.594 Y111.885 E262.6913
G1 X118.594 Y112.738 E262.7876
G1 X112.738 Y118.594 E263.72255
G1 X113.591 Y118.594 E263.81885
G1 X118.594 Y113.591 E264.61761
G1 X118.594 Y114.445 E264.71402
G1 X114.445 Y118.594 E265.37644
G1 X115.298 Y118.594 E265.47274
G1 X118.594 Y115.298 E265.99897
G1 X118.594 Y116.152 E266.09538
G1 X116.152 Y118.594 E266.48526
G1 X116.818 Y118.897 E266.56786
;WIDTH:0.606571
G1 X116.757 Y118.913 E266.57388
G1 X116.712 Y118.868 E266.57995
G1 X116.728 Y118.806 E266.58606
G1 X116.79 Y118.79 E266.59217
G1 X116.835 Y118.835 E266.59824
;WIDTH:0.653285
G1 X116.92 Y118.715 E266.61356
;WIDTH:0.7
G1 X117.005 Y118.594 E266.63025
G1 X118.594 Y117.005 E266.88394
G1 X118.637 Y117.754 E266.96864
;WIDTH:0.613743
G1 X118.637 Y118.637 E267.05408
G1 X117.754 Y118.637 E267.13952
G1 X118.424 Y117.968 E267.23113
M106 S255
;LAYER_CHANGE
;Z:1.35
;HEIGHT:0.45
G1 Z1.35 F1200
G1 X119.047 Y119.047
;TYPE:Perimeter
;WIDTH:0.7
G1 X80.953 Y119.047 E271.53173
G1 X80.953 Y80.953 E275.83233
G1 X119.047 Y80.953 E280.13293
G1 X119.047 Y100 E282.28323
G1 X119.047 Y119.047 E284.43353
G1 X119.65 Y119.65
;TYPE:External perimeter
G1 F4800
G1 X80.35 Y119.65 E288.87028
G1 X80.35 Y80.35 E293.30703
G1 X119.65 Y80.35 E297.74378
G1 X119.65 Y100 E299.96216
G1 X119.65 Y119.65 E302.18054
G1 X119.65 Y119.65 F1200
G92 E0
G1 X81.455 Y118.43
;TYPE:Solid infill
;WIDTH:0.846409
G1 X81.389 Y118.497 E.01319
G1 X81.413 Y118.587 E.02626
G1 X81.503 Y118.611 E.03933
G1 X81.57 Y118.545 E.05252
G1 X81.545 Y118.455 E.06562
;WIDTH:0.7
G1 X82.509 Y118.594 E.17558
G1 X81.406 Y117.491 E.35168
G1 X81.3 Y117.352 E.37141
